Chemx3937/act/custom/qpos_action_full.csv
qpos_0,qpos_1,qpos_2,qpos_3,qpos_4,qpos_5,gripper_qpos,action_0,action_1,action_2,action_3,action_4,action_5,action_gripper
1.1231691481391246,0.3443155699624916,-2.0506446920053736,0.34363832809728445,4.863724174592878,0.6209375131777768,0.0,1.1231691481391246,0.3443155699624916,-2.0506446920053736,0.34363832809728445,4.863724174592878,0.6209375131777768,0.0
1.123130931777482,0.3443791862230308,-2.050701816810756,0.34360244200159556,4.86378542729795,0.6209572205698434,1.0,1.123130931777482,0.3443791862230308,-2.050701816810756,0.34360244200159556,4.86378542729795,0.6209572205698434,1.0
1.1231128222820694,0.344406317176636,-2.050703148391301,0.34356745472277467,4.863784362033514,0.6209730663783293,0.0,1.1231128222820694,0.344406317176636,-2.050703148391301,0.34356745472277467,4.863784362033514,0.6209730663783293,0.0
1.1231128222820694,0.34440525191219995,-2.0506725220387647,0.34354604956551316,4.863744414617163,0.6209785924375912,1.0,1.1231128222820694,0.34440525191219995,-2.0506725220387647,0.34354604956551316,4.863744414617163,0.6209785924375912,1.0
1.1231443807409869,0.34438417965007473,-2.050660937288023,0.3435925550160487,4.863692216659798,0.6209423734467662,0.0,1.1231443807409869,0.34438417965007473,-2.050660937288023,0.3435925550160487,4.863692216659798,0.6209423734467662,0.0
1.1231941818533715,0.3443523881645619,-2.050665730977985,0.3436836351253294,4.863634159748034,0.6208818531109941,1.0,1.1231941818533715,0.3443523881645619,-2.050665730977985,0.3436836351253294,4.863634159748034,0.6208818531109941,1.0
1.1232230771511986,0.3443320482717364,-2.050673054670983,0.3437491155986317,4.86357876599736,0.6208521588648398,0.0,1.1232230771511986,0.3443320482717364,-2.050673054670983,0.3437491155986317,4.86357876599736,0.6208521588648398,0.0
1.1232387898016303,0.3443238923408981,-2.0506843731056157,0.34379964908031596,4.863525502775558,0.6208429043800517,1.0,1.1232387898016303,0.3443238923408981,-2.0506843731056157,0.34379964908031596,4.863525502775558,0.6208429043800517,1.0
1.1232537035037347,0.3443399711759794,-2.0507122031390073,0.34385660743813,4.863477565875937,0.6208383770061985,0.0,1.1232537035037347,0.3443399711759794,-2.0507122031390073,0.34385660743813,4.863477565875937,0.6208383770061985,0.0
1.1232668861511306,0.3443734937162008,-2.0507577431936475,0.3439285127875622,4.863430694240751,0.6208375114788444,1.0,1.1232668861511306,0.3443734937162008,-2.0507577431936475,0.3439285127875622,4.863430694240751,0.6208375114788444,1.0
1.1232631577256043,0.3444148725816379,-2.050834175916933,0.34403400725624295,4.8633880836633105,0.6208493625456951,0.0,1.1232631577256043,0.3444148725816379,-2.050834175916933,0.34403400725624295,4.8633880836633105,0.6208493625456951,0.0
1.123247445075173,0.3444607122419009,-2.050929383925903,0.34415957530164015,4.863352929936922,0.6208684041474892,1.0,1.123247445075173,0.3444607122419009,-2.050929383925903,0.34415957530164015,4.863352929936922,0.6208684041474892,1.0
1.1232306671603056,0.3444986289979209,-2.0509987592722996,0.3442476926442082,4.863350799408049,0.6208775254742227,0.0,1.1232306671603056,0.3444986289979209,-2.0509987592722996,0.3442476926442082,4.863350799408049,0.6208775254742227,0.0
1.123221878728708,0.34452779061185723,-2.051048693542739,0.3443141718029193,4.86336145205241,0.6208743296809146,1.0,1.123221878728708,0.34452779061185723,-2.051048693542739,0.3443141718029193,4.86336145205241,0.6208743296809146,1.0
1.123253836661789,0.34453364956625543,-2.05107652357613,0.3443804512245486,4.8633449404536515,0.6208405075350706,0.0,1.123253836661789,0.34453364956625543,-2.05107652357613,0.3443804512245486,4.8633449404536515,0.6208405075350706,0.0
1.1233057683030456,0.34452922206094316,-2.051096364126251,0.34444579853979646,4.86331830884275,0.6207901737904682,1.0,1.1233057683030456,0.34452922206094316,-2.051096364126251,0.34444579853979646,4.86331830884275,0.6207901737904682,1.0
1.1233313346495104,0.3445442689211021,-2.05113950733591,0.34450029347360217,4.863334287809291,0.6207504261111987,0.0,1.1233313346495104,0.3445442689211021,-2.05113950733591,0.34450029347360217,4.863334287809291,0.6207504261111987,0.0
1.123331734123674,0.34457472882606993,-2.051194901086584,0.34453880944086746,4.863375300490078,0.6207283884531783,1.0,1.123331734123674,0.34457472882606993,-2.051194901086584,0.34453880944086746,4.863375300490078,0.6207283884531783,1.0
1.1232963140811758,0.3446170065083749,-2.0512345821868263,0.3445316854849515,4.863399801572107,0.6207554861172698,0.0,1.1232963140811758,0.3446170065083749,-2.0512345821868263,0.3445316854849515,4.863399801572107,0.6207554861172698,0.0
1.1232430508593743,0.344657053793267,-2.0512574853722008,0.34450036005262946,4.863414715274211,0.6208083498649078,1.0,1.1232430508593743,0.344657053793267,-2.0512574853722008,0.34450036005262946,4.863414715274211,0.6208083498649078,1.0
1.1231933829050442,0.344660083139007,-2.0512538901047295,0.3444803197654266,4.863442412149548,0.620852225443867,0.0,1.1231933829050442,0.344660083139007,-2.0512538901047295,0.3444803197654266,4.863442412149548,0.620852225443867,0.0
1.1231415844218422,0.34463804548098653,-2.0512320521837903,0.3444591809242741,4.86348502272699,0.6208939039149267,1.0,1.1231415844218422,0.34463804548098653,-2.0512320521837903,0.3444591809242741,4.86348502272699,0.6208939039149267,1.0
1.1230627548535759,0.3446258282294858,-2.0512111463692335,0.34438391333396573,4.863549471225369,0.6209628797871597,0.0,1.1230627548535759,0.3446258282294858,-2.0512111463692335,0.34438391333396573,4.863549471225369,0.6209628797871597,0.0
1.1229680794768235,0.3446194366428696,-2.051186378971096,0.344272360173805,4.863629366058071,0.6210475683098243,1.0,1.1229680794768235,0.3446194366428696,-2.051186378971096,0.344272360173805,4.863629366058071,0.6210475683098243,1.0
1.1228599551365666,0.3446033578077883,-2.0511267241626783,0.3441210926238885,4.863739620927201,0.6211398468415955,0.0,1.1228599551365666,0.3446033578077883,-2.0511267241626783,0.3441210926238885,4.863739620927201,0.6211398468415955,0.0
1.122742243416385,0.3445864134453526,-2.051052688284374,0.34395178215758676,4.8638653221306525,0.6212379177487377,1.0,1.122742243416385,0.3445864134453526,-2.051052688284374,0.34395178215758676,4.8638653221306525,0.6212379177487377,1.0
1.1226330538116918,0.3446025921489749,-2.051036842475888,0.3438406284715895,4.863950010653317,0.621332060493272,0.0,1.1226330538116918,0.3446025921489749,-2.051036842475888,0.3438406284715895,4.863950010653317,0.621332060493272,0.0
1.1225307884258326,0.34464024258888587,-2.051052821442428,0.34375534073767977,4.8640149917839155,0.6214220753381167,1.0,1.1225307884258326,0.34464024258888587,-2.051052821442428,0.34375534073767977,4.8640149917839155,0.6214220753381167,1.0
1.122512146298202,0.3446649434079963,-2.0510465630138666,0.34368629828641944,4.86405653709692,0.6214366561450849,0.0,1.122512146298202,0.3446649434079963,-2.0510465630138666,0.34368629828641944,4.86405653709692,0.6214366561450849,0.0
1.1225386447510484,0.34467456407743424,-2.051021928773783,0.34362504558134765,4.864087429765565,0.6214104905873749,1.0,1.1225386447510484,0.34467456407743424,-2.051021928773783,0.34362504558134765,4.864087429765565,0.6214104905873749,1.0
1.1225463679182095,0.3446519604976822,-2.0509863755732307,0.3435736465723091,4.864122050859736,0.6214033000524316,0.0,1.1225463679182095,0.3446519604976822,-2.0509863755732307,0.3435736465723091,4.864122050859736,0.6214033000524316,0.0
1.1225401094896479,0.3446153753222072,-2.05095295290155,0.34353463126233946,4.864155074057253,0.6214110897986201,1.0,1.1225401094896479,0.3446153753222072,-2.05095295290155,0.34353463126233946,4.864155074057253,0.6214110897986201,1.0
1.1225382452768848,0.3446063871535282,-2.0509593444881666,0.34352883888696856,4.864164128804959,0.6214201445463264,0.0,1.1225382452768848,0.3446063871535282,-2.0509593444881666,0.34352883888696856,4.864164128804959,0.6214201445463264,0.0
1.122534650009413,0.34461470953193474,-2.050980782934942,0.343536096000939,4.864156671953907,0.6214361235128668,1.0,1.122534650009413,0.34461470953193474,-2.050980782934942,0.343536096000939,4.864156671953907,0.6214361235128668,1.0
1.1225044231310408,0.3446181050623246,-2.050952287111278,0.34350760017727516,4.864144954045111,0.6214870564687146,0.0,1.1225044231310408,0.3446181050623246,-2.050952287111278,0.34350760017727516,4.864144954045111,0.6214870564687146,0.0
1.122459815182782,0.3446155417697754,-2.050897825466986,0.3434617272274985,4.864128975078571,0.6215580962907925,1.0,1.122459815182782,0.3446155417697754,-2.050897825466986,0.3434617272274985,4.864128975078571,0.6215580962907925,1.0
1.1224269251433197,0.34460419004562887,-2.050876520178265,0.34344648063025784,4.864102876099888,0.6216207471554366,0.0,1.1224269251433197,0.34460419004562887,-2.050876520178265,0.34344648063025784,4.864102876099888,0.6216207471554366,0.0
1.122402956693509,0.34459107397726024,-2.0508779849168643,0.3434451823392264,4.864073581327896,0.6216734777450201,1.0,1.122402956693509,0.34459107397726024,-2.0508779849168643,0.3434451823392264,4.864073581327896,0.6216734777450201,1.0
1.1223820508789517,0.3445949022713273,-2.0508803817618455,0.3434112270353279,4.864061330786883,0.6217099630519543,0.0,1.1223820508789517,0.3445949022713273,-2.0508803817618455,0.3434112270353279,4.864061330786883,0.6217099630519543,0.0
1.1223616776966128,0.34460262543848846,-2.0508747891235566,0.34334820998603394,4.8640666571090625,0.6217893252524386,1.0,1.1223616776966128,0.34460262543848846,-2.0508747891235566,0.34334820998603394,4.8640666571090625,0.6217893252524386,1.0
1.1223326492407306,0.34457489527363805,-2.050827917488371,0.34322760207816694,4.864113528744248,0.6221760162427181,0.0,1.1223326492407306,0.34457489527363805,-2.050827917488371,0.34322760207816694,4.864113528744248,0.6221760162427181,0.0
1.1222887070827445,0.34452985456170204,-2.0507577431936475,0.3430625526696093,4.864195554105822,0.6228107806885386,1.0,1.1222887070827445,0.34452985456170204,-2.0507577431936475,0.3430625526696093,4.864195554105822,0.6228107806885386,1.0
1.1222046843503526,0.3445319518010605,-2.050722189993095,0.3428862181159324,4.864297819491681,0.6235394215627842,0.0,1.1222046843503526,0.3445319518010605,-2.050722189993095,0.3428862181159324,4.864297819491681,0.6235394215627842,0.0
1.1220916331620785,0.3445601813086153,-2.0507070099748814,0.34269084196046146,4.864428847017313,0.6243767194095051,1.0,1.1220916331620785,0.3445601813086153,-2.0507070099748814,0.34269084196046146,4.864428847017313,0.6243767194095051,1.0
1.1219611382686645,0.344570800663462,-2.050686104160324,0.34244283508394785,4.86463923674343,0.6254592943926223,0.0,1.1219611382686645,0.344570800663462,-2.050686104160324,0.34244283508394785,4.86463923674343,0.6254592943926223,0.0
1.1218289123205423,0.3445703346102713,-2.0506584072849874,0.34216876251826506,4.864892237046988,0.6266467313436614,1.0,1.1218289123205423,0.3445703346102713,-2.0506584072849874,0.34216876251826506,4.864892237046988,0.6266467313436614,1.0
1.12173423694379,0.34457862369916414,-2.0506216556619448,0.34192524972609095,4.86511700784299,0.627614723820878,0.0,1.12173423694379,0.34457862369916414,-2.0506216556619448,0.34192524972609095,4.86511700784299,0.627614723820878,0.0
1.1216619321201944,0.3445948024027864,-2.0505865019355554,0.34171915434723243,4.86530502701595,0.6283753892072318,1.0,1.1216619321201944,0.3445948024027864,-2.0505865019355554,0.34171915434723243,4.86530502701595,0.6283753892072318,1.0
1.1215625962115343,0.344624563227968,-2.0505807761392116,0.34154754690449046,4.86545522930143,0.6290022973278364,0.0,1.1215625962115343,0.344624563227968,-2.0505807761392116,0.34154754690449046,4.86545522930143,0.6290022973278364,0.0
1.1214535397648955,0.34465818563673023,-2.050591428783572,0.3414069319989343,4.865571343124957,0.6295108945170144,1.0,1.1214535397648955,0.34465818563673023,-2.050591428783572,0.3414069319989343,4.865571343124957,0.6295108945170144,1.0
1.1213877596859707,0.34466827235935893,-2.0505783792942305,0.34129021896416156,4.865653368486532,0.6299066402550001,0.0,1.1213877596859707,0.34466827235935893,-2.0505783792942305,0.34129021896416156,4.865653368486532,0.6299066402550001,0.0
1.121350608588764,0.344672267100994,-2.050560003482709,0.34119361279561894,4.8657130232949495,0.6302174311542124,1.0,1.121350608588764,0.344672267100994,-2.050560003482709,0.34119361279561894,4.8657130232949495,0.6302174311542124,1.0
1.1213171859170836,0.3447271615089633,-2.0506074077501126,0.34115409814294484,4.865744981228031,0.6303564481631145,0.0,1.1213171859170836,0.3447271615089633,-2.0506074077501126,0.34115409814294484,4.865744981228031,0.6303564481631145,0.0
1.1212773716587867,0.34483258939861683,-2.0507087410295903,0.3411492711634691,4.865752970711301,0.6303479260476262,1.0,1.1212773716587867,0.34483258939861683,-2.0507087410295903,0.3411492711634691,4.865752970711301,0.6303479260476262,1.0
1.1212111921056984,0.34501847804270436,-2.050866000691959,0.3411571274886848,4.865712490662731,0.6300882012623162,0.0,1.1212111921056984,0.34501847804270436,-2.050866000691959,0.3411571274886848,4.865712490662731,0.6300882012623162,0.0
1.121114652516183,0.3452837954663035,-2.051077322524457,0.34116544986709135,4.86564324847439,0.6296559036383692,1.0,1.121114652516183,0.3452837954663035,-2.051077322524457,0.34116544986709135,4.86564324847439,0.6296559036383692,1.0
1.120994144476857,0.3455767764757258,-2.051291840150263,0.3411394840464631,4.86561075790909,0.6293249392938995,0.0,1.120994144476857,0.3455767764757258,-2.051291840150263,0.3411394840464631,4.86561075790909,0.6293249392938995,0.0
1.1208537958874096,0.3459072414774911,-2.051521138320119,0.34108628740368874,4.865595844206986,0.6290423113232149,1.0,1.1208537958874096,0.3459072414774911,-2.051521138320119,0.34108628740368874,4.865595844206986,0.6290423113232149,1.0
1.1207006641247301,0.34630897932792953,-2.051791049696598,0.34100752441444965,4.865552700997327,0.6286991630167582,0.0,1.1207006641247301,0.34630897932792953,-2.051791049696598,0.34100752441444965,4.865552700997327,0.6286991630167582,0.0
1.1205147754806426,0.34679394096243293,-2.0521139579787704,0.3409059248188631,4.865489317763383,0.6282938964778754,1.0,1.1205147754806426,0.34679394096243293,-2.0521139579787704,0.3409059248188631,4.865489317763383,0.6282938964778754,1.0
1.1202428667333455,0.3473459476773791,-2.0524886647441445,0.3407896112582539,4.865440315599326,0.6279106010179858,0.0,1.1202428667333455,0.3473459476773791,-2.0524886647441445,0.3407896112582539,4.865440315599326,0.6279106010179858,0.0
1.1199083737004316,0.34796183696897354,-2.0529067810352872,0.34066301123793424,4.865397705021884,0.6275130576462641,1.0,1.1199083737004316,0.34796183696897354,-2.0529067810352872,0.34066301123793424,4.865397705021884,0.6275130576462641,1.0
1.1196171570352316,0.3485573197887153,-2.0532888114936587,0.34055628505724933,4.865337517581248,0.6270400802366661,0.0,1.1196171570352316,0.3485573197887153,-2.0532888114936587,0.34055628505724933,4.865337517581248,0.6270400802366661,0.0
1.119337791436882,0.3491718109207374,-2.053670442477867,0.3404599452048157,4.865264014335162,0.6265013893271703,1.0,1.119337791436882,0.3491718109207374,-2.053670442477867,0.3404599452048157,4.865264014335162,0.6265013893271703,1.0
1.1189846562763377,0.34992894761864696,-2.0541511430546264,0.34036187429767356,4.865181988973588,0.6258875972749343,0.0,1.1189846562763377,0.34992894761864696,-2.0541511430546264,0.34036187429767356,4.865181988973588,0.6258875972749343,0.0
1.118593970544423,0.35076334927768243,-2.0546821773759882,0.34025751167245605,4.865093039393179,0.6252259349021041,1.0,1.118593970544423,0.35076334927768243,-2.0546821773759882,0.34025751167245605,4.865093039393179,0.6252259349021041,1.0
1.1181666663475198,0.3517270474076412,-2.0552679396577513,0.34010338122436773,4.864967870821945,0.6243842428395846,0.0,1.1181666663475198,0.3517270474076412,-2.0552679396577513,0.34010338122436773,4.864967870821945,0.6243842428395846,0.0
1.1177117984333342,0.35278299077985764,-2.055900973048863,0.33990510888121134,4.864823527490863,0.6234665841069705,1.0,1.1177117984333342,0.35278299077985764,-2.055900973048863,0.33990510888121134,4.864823527490863,0.6234665841069705,1.0
1.117130962999588,0.35410345262734616,-2.056744396166091,0.3396110958968666,4.864690369436359,0.6226386739030921,0.0,1.117130962999588,0.35410345262734616,-2.056744396166091,0.3396110958968666,4.864690369436359,0.6226386739030921,0.0
1.1164956659215497,0.3555631645103322,-2.0577010036296475,0.3392453107211442,4.864570527187306,0.6219371972719653,1.0,1.1164956659215497,0.3555631645103322,-2.0577010036296475,0.3392453107211442,4.864570527187306,0.6219371972719653,1.0
1.1158023785107747,0.35731239529332354,-2.058825656557988,0.3387224656201344,4.864438434397238,0.6212861209644681,0.0,1.1158023785107747,0.35731239529332354,-2.058825656557988,0.3387224656201344,4.864438434397238,0.6212861209644681,0.0
1.115088052127388,0.3591854630670035,-2.060012627455836,0.33811110370239306,4.864315928987095,0.6207120100124743,1.0,1.115088052127388,0.3591854630670035,-2.060012627455836,0.33811110370239306,4.864315928987095,0.6207120100124743,1.0
1.1142415663749066,0.36130270942313014,-2.061327030611845,0.3373667168882023,4.864260002604203,0.6202613365770057,0.0,1.1142415663749066,0.36130270942313014,-2.061327030611845,0.3373667168882023,4.864260002604203,0.6202613365770057,0.0
1.1133168502654038,0.36351636221071765,-2.0626852427677855,0.33655781499660437,4.8642536110175865,0.6199425561945232,1.0,1.1133168502654038,0.36351636221071765,-2.0626852427677855,0.33655781499660437,4.8642536110175865,0.6199425561945232,1.0
1.1123164338019154,0.3657260535461836,-2.064038528075709,0.3357462166544027,4.8642594699719846,0.619835497118702,0.0,1.1123164338019154,0.3657260535461836,-2.064038528075709,0.3357462166544027,4.8642594699719846,0.619835497118702,0.0
1.1112317948689534,0.36800884865357225,-2.0654372202802187,0.3349017282727386,4.864268524719691,0.6198602645168397,1.0,1.1112317948689534,0.36800884865357225,-2.0654372202802187,0.3349017282727386,4.864268524719691,0.6198602645168397,1.0
1.1101998865255749,0.3701794581000414,-2.066771863460512,0.33407118819728376,4.864271187880781,0.6198815698055603,0.0,1.1101998865255749,0.3701794581000414,-2.066771863460512,0.33407118819728376,4.864271187880781,0.6198815698055603,0.0
1.1091874858371813,0.3723107526309181,-2.0680862666165205,0.3332461741810908,4.864268524719691,0.6198998124590274,1.0,1.1091874858371813,0.3723107526309181,-2.0680862666165205,0.3332461741810908,4.864268524719691,0.6198998124590274,1.0
1.1082227557323003,0.3743181768815926,-2.0693294302133696,0.3325067475044303,4.864256806810894,0.6199547401565102,0.0,1.1082227557323003,0.3743181768815926,-2.0693294302133696,0.3325067475044303,4.864256806810894,0.6199547401565102,0.0
1.1073415823066202,0.3761359507731398,-2.070452751561165,0.3318504114537803,4.8642450889020985,0.6200326376183951,1.0,1.1073415823066202,0.3761359507731398,-2.070452751561165,0.3318504114537803,4.8642450889020985,0.6200326376183951,1.0
1.106521128953794,0.377822264375378,-2.07146342119485,0.3311775638043718,4.864258404707548,0.620129842998183,0.0,1.106521128953794,0.377822264375378,-2.07146342119485,0.3311775638043718,4.864258404707548,0.620129842998183,0.0
1.1057479467103166,0.3794207269511572,-2.0724012533727216,0.33050355102198636,4.864281307892923,0.6201984859752797,1.0,1.1057479467103166,0.3794207269511572,-2.0724012533727216,0.33050355102198636,4.864281307892923,0.6201984859752797,1.0
1.10510752304718,0.3808065694034072,-2.073232159632826,0.3299865315858611,4.864260002604203,0.6200644623934215,0.0,1.10510752304718,0.3808065694034072,-2.073232159632826,0.3299865315858611,4.864260002604203,0.6200644623934215,0.0
1.104478417818676,0.3822148822773547,-2.0740907627682676,0.3295102918039277,4.8642046088535285,0.6197896241689254,1.0,1.104478417818676,0.3822148822773547,-2.0740907627682676,0.3295102918039277,4.8642046088535285,0.6197896241689254,1.0
1.1039691548392256,0.3833632040498833,-2.074790508344686,0.3291124821160971,4.864136431929623,0.6195575962589521,0.0,1.1039691548392256,0.3833632040498833,-2.074790508344686,0.3291124821160971,4.864136431929623,0.6195575962589521,0.0
1.103525139306482,0.38436168972158113,-2.0753977090732243,0.3287536211592089,4.864070918166807,0.6193605223382863,1.0,1.103525139306482,0.38436168972158113,-2.0753977090732243,0.3287536211592089,4.864070918166807,0.6193605223382863,1.0
1.1031434417432466,0.38519585835402126,-2.0759061065253204,0.32844109920528813,4.864050678142522,0.6191985355649823,0.0,1.1031434417432466,0.38519585835402126,-2.0759061065253204,0.32844109920528813,4.864050678142522,0.6191985355649823,0.0
1.1027724634033986,0.38596497927683615,-2.076371627083866,0.3281345027847927,4.864060265522446,0.6190647117202057,1.0,1.1027724634033986,0.38596497927683615,-2.076371627083866,0.3281345027847927,4.864060265522446,0.6190647117202057,1.0
1.1024050803310221,0.3865894905524598,-2.076724895402465,0.3278266746522932,4.864080505546731,0.6190377472141688,0.0,1.1024050803310221,0.3865894905524598,-2.076724895402465,0.3278266746522932,4.864080505546731,0.6190377472141688,0.0
1.1020268448772035,0.387098320768233,-2.0769873499278924,0.3275103909833327,4.864127909814135,0.6191254983720869,1.0,1.1020268448772035,0.387098320768233,-2.0769873499278924,0.3275103909833327,4.864127909814135,0.6191254983720869,1.0
1.101681099988684,0.3873448629061471,-2.0770774979307918,0.32723711736597694,4.864277046835179,0.6194331600570183,0.0,1.101681099988684,0.3873448629061471,-2.0770774979307918,0.32723711736597694,4.864277046835179,0.6194331600570183,0.0
1.101332026148802,0.38739030309224654,-2.077038748936931,0.3269962677348929,4.864494360780129,0.6199168566900038,1.0,1.101332026148802,0.38739030309224654,-2.077038748936931,0.3269962677348929,4.864494360780129,0.6199168566900038,1.0
1.1009115130126783,0.3871499528038669,-2.0768322207943952,0.3268212314722474,4.864735110542672,0.6206147380536591,0.0,1.1009115130126783,0.3871499528038669,-2.0768322207943952,0.3268212314722474,4.864735110542672,0.6206147380536591,0.0
1.100434540861445,0.38668895961917416,-2.0764866756429576,0.326689005524125,4.864986512949576,0.6214856583091424,1.0,1.100434540861445,0.38668895961917416,-2.0764866756429576,0.326689005524125,4.864986512949576,0.6214856583091424,1.0
1.0999002441677481,0.38596884086041683,-2.0759392628808917,0.32657239235789315,4.865238980620916,0.6225972617481413,0.0,1.0999002441677481,0.38596884086041683,-2.0759392628808917,0.32657239235789315,4.865238980620916,0.6225972617481413,0.0
1.0993423784984035,0.3850987861322879,-2.0752815952496966,0.3264777835601681,4.865486654602293,0.6238408248191539,1.0,1.0993423784984035,0.3850987861322879,-2.0752815952496966,0.3264777835601681,4.865486654602293,0.6238408248191539,1.0
1.0986566810967355,0.3839476347511011,-2.07446187426617,0.32643830219700765,4.8657854612766,0.625433062255885,0.0,1.0986566810967355,0.3839476347511011,-2.07446187426617,0.32643830219700765,4.8657854612766,0.625433062255885,0.0
1.0979277739063809,0.3826965149604955,-2.0735934174346955,0.3264343740343998,4.866104507975191,0.6271589238003108,1.0,1.0979277739063809,0.3826965149604955,-2.0735934174346955,0.3264343740343998,4.866104507975191,0.6271589238003108,1.0
1.0970909421128507,0.3813168976472936,-2.0726132409954916,0.3264091738725849,4.866485340011073,0.6291514343488809,0.0,1.0970909421128507,0.3813168976472936,-2.0726132409954916,0.3264091738725849,4.866485340011073,0.6291514343488809,0.0
1.0962179579075229,0.37989034211987904,-2.0715855271308303,0.3263743197518185,4.866891738393418,0.6312436137012472,1.0,1.0962179579075229,0.37989034211987904,-2.0715855271308303,0.3263743197518185,4.866891738393418,0.6312436137012472,1.0
1.0952619496552116,0.37821964129953145,-2.0703808462117332,0.32636196934226325,4.867340214720988,0.6335875283556531,0.0,1.0952619496552116,0.37821964129953145,-2.0703808462117332,0.32636196934226325,4.867340214720988,0.6335875283556531,0.0
1.094274715839119,0.3764210088783192,-2.069088014660554,0.3263723889600282,4.867804670015098,0.636051884470358,1.0,1.094274715839119,0.3764210088783192,-2.069088014660554,0.3263723889600282,4.867804670015098,0.636051884470358,1.0
1.0932581872510359,0.3745555311137459,-2.067767885708202,0.32641729651390966,4.868278712689132,0.6386483333751307,0.0,1.0932581872510359,0.3745555311137459,-2.067767885708202,0.32641729651390966,4.868278712689132,0.6386483333751307,0.0
1.0922413257678165,0.37265779581046904,-2.0664393677984156,0.3264849408055977,4.86875701642091,0.6413136915731092,1.0,1.0922413257678165,0.37265779581046904,-2.0664393677984156,0.3264849408055977,4.86875701642091,0.6413136915731092,1.0
1.0913202049257853,0.3707742751295105,-2.0651292257001512,0.32656107392326034,4.869230526462726,0.6439221247027873,0.0,1.0913202049257853,0.3707742751295105,-2.0651292257001512,0.32656107392326034,4.869230526462726,0.6439221247027873,0.0
1.0904823744468464,0.3689040036749751,-2.0638327988815006,0.32664516323467957,4.869702971240106,0.6464723011836201,1.0,1.0904823744468464,0.3689040036749751,-2.0638327988815006,0.32664516323467957,4.869702971240106,0.6464723011836201,1.0
1.089756995944936,0.36704175499322367,-2.062542231017248,0.3267521890209871,4.870192992880681,0.6489355254548616,0.0,1.089756995944936,0.36704175499322367,-2.062542231017248,0.3267521890209871,4.870192992880681,0.6489355254548616,0.0
1.0891197680751072,0.3651843665804615,-2.061255125262413,0.32687865588325227,4.870698993487796,0.6513576704662886,1.0,1.0891197680751072,0.3651843665804615,-2.061255125262413,0.32687865588325227,4.870698993487796,0.6513576704662886,1.0
1.0885762834756494,0.3632557386085397,-2.05992168050461,0.32703901147038866,4.871249202569007,0.6539521885792711,0.0,1.0885762834756494,0.3632557386085397,-2.05992168050461,0.32703901147038866,4.871249202569007,0.6539521885792711,0.0
1.088163759822796,0.3614827058233059,-2.058701420093136,0.3272017306129925,4.871769584246008,0.6563886480815573,1.0,1.088163759822796,0.3614827058233059,-2.058701420093136,0.3272017306129925,4.871769584246008,0.6563886480815573,1.0
1.0878614244600449,0.3595964886917436,-2.0574272306695875,0.3273712741058897,4.872330445971579,0.6589900238343467,0.0,1.0878614244600449,0.3595964886917436,-2.0574272306695875,0.3273712741058897,4.872330445971579,0.6589900238343467,0.0
1.087692113993743,0.35779043270899274,-2.056219220799128,0.32752780139895904,4.872855621338542,0.661470358915592,1.0,1.087692113993743,0.35779043270899274,-2.056219220799128,0.32752780139895904,4.872855621338542,0.661470358915592,1.0
1.0877048971669754,0.3559165992764993,-2.0549516892783046,0.32767793710541226,4.873320076632652,0.6639796558736919,0.0,1.0877048971669754,0.3559165992764993,-2.0549516892783046,0.32767793710541226,4.873320076632652,0.6639796558736919,0.0
1.0878720105253779,0.35404309873914225,-2.0536763014322656,0.32782014990762254,4.873738725556012,0.6664411490902249,1.0,1.0878720105253779,0.35404309873914225,-2.0536763014322656,0.32782014990762254,4.873738725556012,0.6664411490902249,1.0
1.088338396611278,0.351903748145968,-2.0522264765348264,0.32797730970145084,4.874221290345535,0.6691969216072116,0.0,1.088338396611278,0.351903748145968,-2.0522264765348264,0.32797730970145084,4.874221290345535,0.6691969216072116,0.0
1.0890537216800733,0.3495370634642418,-2.050627381458288,0.3281497826715471,4.874743269919191,0.6721726046512118,1.0,1.0890537216800733,0.3495370634642418,-2.050627381458288,0.3281497826715471,4.874743269919191,0.6721726046512118,1.0
1.0899315661543907,0.34717966655681726,-2.0490345448103118,0.32832864722825955,4.875173636751347,0.6749329045420516,0.0,1.0899315661543907,0.34717966655681726,-2.0490345448103118,0.32832864722825955,4.875173636751347,0.6749329045420516,0.0
1.0909379081513044,0.34478431960385914,-2.047416008657816,0.3285220260129129,4.875557131948319,0.6776330835712829,1.0,1.0909379081513044,0.34478431960385914,-2.047416008657816,0.3285220260129129,4.875557131948319,0.6776330835712829,1.0
1.092062827395754,0.34240967872837635,-2.0458127856815884,0.32874989273368277,4.875937431351982,0.6803869252964793,0.0,1.092062827395754,0.34240967872837635,-2.0458127856815884,0.32874989273368277,4.875937431351982,0.6803869252964793,0.0
1.0932724351628678,0.3400503843186752,-2.0442182179789037,0.32899220710336635,4.876323589710044,0.6831885041842155,1.0,1.0932724351628678,0.3400503843186752,-2.0442182179789037,0.32899220710336635,4.876323589710044,0.6831885041842155,1.0
1.0945690617186001,0.3376900912235652,-2.0426110002610405,0.3292021307762919,4.876730520724608,0.6860394181311453,0.0,1.0945690617186001,0.3376900912235652,-2.0426110002610405,0.3292021307762919,4.876730520724608,0.6860394181311453,0.0
1.0959284057180039,0.3353349912925809,-2.0409933962149265,0.32938938429043807,4.877147571751314,0.6888844065446497,1.0,1.0959284057180039,0.3353349912925809,-2.0409933962149265,0.32938938429043807,4.877147571751314,0.6888844065446497,1.0
1.097351266109406,0.3330139132445223,-2.0393670037372154,0.32957071227115886,4.877547045914826,0.6915587529113072,0.0,1.097351266109406,0.3330139132445223,-2.0393670037372154,0.32957071227115886,4.877547045914826,0.6915587529113072,0.0
1.0988078154885974,0.3307233949699724,-2.03774966600721,0.3297522399889614,4.877926280054053,0.694117451507628,1.0,1.0988078154885974,0.3307233949699724,-2.03774966600721,0.3297522399889614,4.877926280054053,0.694117451507628,1.0
1.1002513819574748,0.328479648462067,-2.0362019699397105,0.3299468171961053,4.878259175190313,0.6966372013730066,0.0,1.1002513819574748,0.328479648462067,-2.0362019699397105,0.3299468171961053,4.878259175190313,0.6966372013730066,0.0
1.1016766391938582,0.32626626199058856,-2.034705806039304,0.330167759698041,4.878565438715672,0.6991147401351073,1.0,1.1016766391938582,0.32626626199058856,-2.034705806039304,0.330167759698041,4.878565438715672,0.6991147401351073,1.0
1.1030626148041627,0.32406605816650597,-2.0332482579747033,0.3304791165189849,4.878879159092084,0.7014692408548464,0.0,1.1030626148041627,0.32406605816650597,-2.0332482579747033,0.3304791165189849,4.878879159092084,0.7014692408548464,0.0
1.1044144353734868,0.32189901069799487,-2.03182373310762,0.33083920918787724,4.879184357353006,0.7037020351127687,1.0,1.1044144353734868,0.32189901069799487,-2.03182373310762,0.33083920918787724,4.879184357353006,0.7037020351127687,1.0
1.1056636576618157,0.31994435032641755,-2.030511593638538,0.3311520973264479,4.879406997620137,0.7056281663711685,0.0,1.1056636576618157,0.31994435032641755,-2.030511593638538,0.3311520973264479,4.879406997620137,0.7056281663711685,0.0
1.1069152767951258,0.3179799028378343,-2.0291757520357545,0.33146328769982364,4.879597679954187,0.7074874522862074,1.0,1.1069152767951258,0.3179799028378343,-2.0291757520357545,0.33146328769982364,4.879597679954187,0.7074874522862074,1.0
1.108058638430124,0.31595143961454814,-2.027815143034833,0.331835131567026,4.87982511391128,0.7093019970949329,0.0,1.108058638430124,0.31595143961454814,-2.027815143034833,0.331835131567026,4.87982511391128,0.7093019970949329,0.0
1.1091474052627757,0.3137645183064023,-2.0263538665447065,0.3322671628748641,4.8800935605491595,0.7111521616832381,1.0,1.1091474052627757,0.3137645183064023,-2.0263538665447065,0.3322671628748641,4.8800935605491595,0.7111521616832381,1.0
1.1100478200273316,0.3115258650940817,-2.024815092066859,0.33269306891219497,4.880364137715912,0.7128421371319752,0.0,1.1100478200273316,0.3115258650940817,-2.024815092066859,0.33269306891219497,4.880364137715912,0.7128421371319752,0.0
1.1108372475534583,0.3091962316410213,-2.023192294856619,0.33313601918050245,4.8806427043659335,0.714463336445561,1.0,1.1108372475534583,0.3091962316410213,-2.023192294856619,0.33313601918050245,4.8806427043659335,0.714463336445561,1.0
1.1114758735828592,0.3069102074508109,-2.0216203640231996,0.3336243430558821,4.880919673119302,0.7159489808596616,0.0,1.1114758735828592,0.3069102074508109,-2.0216203640231996,0.3336243430558821,4.880919673119302,0.7159489808596616,0.0
1.1120608369162952,0.3043909569281368,-2.0198972987979187,0.33419495860894516,4.881223806115789,0.7175128556307835,1.0,1.1120608369162952,0.3043909569281368,-2.0198972987979187,0.33419495860894516,4.881223806115789,0.7175128556307835,1.0
1.112457381602608,0.3019998044538955,-2.018231624694128,0.33471310988853376,4.881494383282542,0.7189553568352249,0.0,1.112457381602608,0.3019998044538955,-2.018231624694128,0.33471310988853376,4.881494383282542,0.7189553568352249,0.0
1.1127793577783984,0.29936360786985333,-2.016373270885471,0.33526068909816764,4.881784135209142,0.7205262889832353,1.0,1.1127793577783984,0.29936360786985333,-2.016373270885471,0.33526068909816764,4.881784135209142,0.7205262889832353,1.0
1.1130147146397342,0.29681462981151124,-2.0145725745144136,0.335763460622461,4.882080811354577,0.7220649968820558,0.0,1.1130147146397342,0.29681462981151124,-2.0145725745144136,0.335763460622461,4.882080811354577,0.7220649968820558,0.0
1.1132063956591927,0.29425436660804993,-2.012759094970124,0.33625321594692653,4.882393466466552,0.7236169540072996,1.0,1.1132063956591927,0.29425436660804993,-2.012759094970124,0.33625321594692653,4.882393466466552,0.7236169540072996,1.0
1.113376837968958,0.2916667394243881,-2.010906999590029,0.3367479314089224,4.882723165809504,0.7251485379502042,0.0,1.113376837968958,0.2916667394243881,-2.010906999590029,0.3367479314089224,4.882723165809504,0.7251485379502042,0.0
1.1135315010492641,0.28908127605911194,-2.0090422541947555,0.3372348571247298,4.883065648325688,0.7266715331985932,1.0,1.1135315010492641,0.28908127605911194,-2.0090422541947555,0.3372348571247298,4.883065648325688,0.7266715331985932,1.0
1.1136613301524056,0.2865896225432338,-2.0072313046535015,0.33766312671752813,4.883424109808412,0.7282202945305288,0.0,1.1136613301524056,0.2865896225432338,-2.0072313046535015,0.33766312671752813,4.883424109808412,0.7282202945305288,0.0
1.1137748473938702,0.2841737359603684,-2.0054644304282885,0.33805074981418914,4.8837889628777535,0.7297822385098603,1.0,1.1137748473938702,0.2841737359603684,-2.0054644304282885,0.33805074981418914,4.8837889628777535,0.7297822385098603,1.0
1.1138811075213644,0.28183954184394117,-2.003741897835225,0.3384190649929471,4.884142098038297,0.73132653904697,0.0,1.1138811075213644,0.28183954184394117,-2.003741897835225,0.3384190649929471,4.884142098038297,0.73132653904697,0.0
1.1139926939710385,0.2795659679318269,-2.002058513710186,0.3387780258183762,4.884487243715572,0.732850066927577,1.0,1.1139926939710385,0.2795659679318269,-2.002058513710186,0.3387780258183762,4.884487243715572,0.732850066927577,1.0
1.1141485554738355,0.27735980528480525,-2.0004422412446172,0.3391390838831637,4.884826530438448,0.7343302518614432,0.0,1.1141485554738355,0.27735980528480525,-2.0004422412446172,0.3391390838831637,4.884826530438448,0.7343302518614432,0.0
1.114316001727374,0.27528585194114924,-1.9989267694263073,0.3394755742868952,4.885150370827002,0.7357336711768876,1.0,1.114316001727374,0.27528585194114924,-1.9989267694263073,0.3394755742868952,4.885150370827002,0.7357336711768876,1.0
1.1144403047712537,0.2731635455789515,-1.997335264358876,0.339758368705148,4.885488059653223,0.7372380908766734,0.0,1.1144403047712537,0.2731635455789515,-1.997335264358876,0.339758368705148,4.885488059653223,0.7372380908766734,0.0
1.1145449670020937,0.2710752610996795,-1.9957464224525348,0.33999532346313777,4.885826281111664,0.7387797948317203,1.0,1.1145449670020937,0.2710752610996795,-1.9957464224525348,0.33999532346313777,4.885826281111664,0.7387797948317203,1.0
1.1147361819683614,0.26905417150366157,-1.9942369427466777,0.3402254205813206,4.886162372041232,0.7403647085754537,0.0,1.1147361819683614,0.26905417150366157,-1.9942369427466777,0.3402254205813206,4.886162372041232,0.7403647085754537,0.0
1.1150014328129334,0.2670513578506242,-1.9927551599161577,0.3404329141197514,4.886514441937341,0.7420723940454397,1.0,1.1150014328129334,0.2670513578506242,-1.9927551599161577,0.3404329141197514,4.886514441937341,0.7420723940454397,1.0
1.1152954457972781,0.26534427159188345,-1.9914495451917464,0.3404675352139225,4.886891012915478,0.7439802826503724,0.0,1.1152954457972781,0.26534427159188345,-1.9914495451917464,0.3404675352139225,4.886891012915478,0.7439802826503724,0.0
1.1156604320246735,0.26383580721619215,-1.990261242713353,0.3403801502406542,4.887286226021246,0.746055883824953,1.0,1.1156604320246735,0.26383580721619215,-1.990261242713353,0.3403801502406542,4.887286226021246,0.746055883824953,1.0
1.1162682319644568,0.2627013172365752,-1.9893452484564202,0.34019962120826047,4.8876382959173545,0.7480824162564488,0.0,1.1162682319644568,0.2627013172365752,-1.9893452484564202,0.34019962120826047,4.8876382959173545,0.7480824162564488,0.0
1.117085023470784,0.2618689961721414,-1.9886630797431966,0.3399527128856965,4.88796426683478,0.7500624765269227,1.0,1.117085023470784,0.2618689961721414,-1.9886630797431966,0.3399527128856965,4.88796426683478,0.7500624765269227,1.0
1.1181979584903283,0.2614222841887942,-1.9883211298592303,0.3396312693421239,4.888299292499912,0.7520182354524496,0.0,1.1181979584903283,0.2614222841887942,-1.9883211298592303,0.3396312693421239,4.888299292499912,0.7520182354524496,0.0
1.1195320690384034,0.2612851313926551,-1.9882295171177318,0.3392332599172116,4.888632720268389,0.753944499868904,1.0,1.1195320690384034,0.2612851313926551,-1.9882295171177318,0.3392332599172116,4.888632720268389,0.753944499868904,1.0
1.1210973419690975,0.26156604495338803,-1.9883811841418115,0.33866820371292405,4.888915547976156,0.7557861423417209,0.0,1.1210973419690975,0.26156604495338803,-1.9883811841418115,0.33866820371292405,4.888915547976156,0.7557861423417209,0.0
1.1227120165380124,0.26218444760326126,-1.9887355177248467,0.33794392376496335,4.88910250188468,0.75750441387704,1.0,1.1227120165380124,0.26218444760326126,-1.9887355177248467,0.33794392376496335,4.88910250188468,0.75750441387704,1.0
1.1243708995810229,0.2635361516592878,-1.9895750792584943,0.33664846234220797,4.888977865945663,0.7593650979516512,0.0,1.1243708995810229,0.2635361516592878,-1.9895750792584943,0.33664846234220797,4.888977865945663,0.7593650979516512,0.0
1.1259300472412097,0.2653474174509211,-1.9906560563449573,0.33502486618364113,4.888407949472387,0.760955138280483,1.0,1.1259300472412097,0.2653474174509211,-1.9906560563449573,0.33502486618364113,4.888407949472387,0.760955138280483,1.0
1.1276302092811163,0.267696325532371,-1.991748218707999,0.3330529951335192,4.886591673608953,0.7615385037172648,0.0,1.1276302092811163,0.267696325532371,-1.991748218707999,0.3330529951335192,4.886591673608953,0.7615385037172648,0.0
1.1293121286675558,0.2705297291951335,-1.9928763337457562,0.33091710664976204,4.8842187970776925,0.7614494875578289,1.0,1.1293121286675558,0.2705297291951335,-1.9928763337457562,0.33091710664976204,4.8842187970776925,0.7614494875578289,1.0
1.1304096173527776,0.2740720663400752,-1.9941739589868974,0.32902516372185614,4.8829074565569375,0.7611448885081512,0.0,1.1304096173527776,0.2740720663400752,-1.9941739589868974,0.32902516372185614,4.8829074565569375,0.7611448885081512,0.0
1.1311538377194001,0.27836285161987,-1.995620188616865,0.3270826873122659,4.882334344290352,0.7606965453386364,1.0,1.1311538377194001,0.27836285161987,-1.995620188616865,0.3270826873122659,4.882334344290352,0.7606965453386364,1.0
1.1316258830226167,0.2832812773895692,-1.9968305953323062,0.32452072634360973,4.882358312740163,0.7600734988016122,0.0,1.1316258830226167,0.2832812773895692,-1.9968305953323062,0.32452072634360973,4.882358312740163,0.7600734988016122,0.0
1.1319514544658789,0.28805525995964526,-1.9977025142731981,0.3217448469603929,4.882773233237997,0.7594394001460644,1.0,1.1319514544658789,0.28805525995964526,-1.9977025142731981,0.3217448469603929,4.882773233237997,0.7594394001460644,1.0
1.1325254988388453,0.29305667648681405,-1.9982519244060812,0.3183695233053128,4.883660598513211,0.7589221476833438,0.0,1.1325254988388453,0.29305667648681405,-1.9982519244060812,0.3183695233053128,4.883660598513211,0.7589221476833438,0.0
1.1334256472872923,0.29796135368738574,-1.998488546268935,0.31466013938099596,4.884770604055556,0.7584492368527729,1.0,1.1334256472872923,0.29796135368738574,-1.998488546268935,0.31466013938099596,4.884770604055556,0.7584492368527729,1.0
1.1353369980016421,0.3024603981644247,-1.998190005910737,0.310565096441322,4.885600977683443,0.7576207940166766,0.0,1.1353369980016421,0.3024603981644247,-1.998190005910737,0.310565096441322,4.885600977683443,0.7576207940166766,0.0
1.1378921679095186,0.30628772683551847,-1.9975232835318357,0.3065504476770548,4.886170361524503,0.7565643180122421,1.0,1.1378921679095186,0.30628772683551847,-1.9975232835318357,0.3065504476770548,4.886170361524503,0.7565643180122421,1.0
1.1411083343999529,0.3094663760440962,-1.9965432402506864,0.30276639537367483,4.886687547408195,0.7552752814656165,0.0,1.1411083343999529,0.3094663760440962,-1.9965432402506864,0.30276639537367483,4.886687547408195,0.7552752814656165,0.0
1.144762324573596,0.31215350558398614,-1.9953705172646703,0.29922039638223435,4.887240419650496,0.7538616755590024,1.0,1.144762324573596,0.31215350558398614,-1.9953705172646703,0.29922039638223435,4.887240419650496,0.7538616755590024,1.0
1.148726706172288,0.3142896270943387,-1.9941125731237712,0.29610839277993584,4.888067064852857,0.7524834231158591,0.0,1.148726706172288,0.3142896270943387,-1.9941125731237712,0.29610839277993584,4.888067064852857,0.7524834231158591,0.0
1.1527181188560442,0.31598449610157875,-1.992874602691048,0.29344836090413745,4.889008225982091,0.7511776086543661,1.0,1.1527181188560442,0.31598449610157875,-1.992874602691048,0.29344836090413745,4.889008225982091,0.7511776086543661,1.0
1.157008471372162,0.3174608860308914,-1.9916428906868862,0.29112242258708954,4.889898254418395,0.7497516856277104,0.0,1.157008471372162,0.3174608860308914,-1.9916428906868862,0.29112242258708954,4.889898254418395,0.7497516856277104,0.0
1.1613693976571668,0.3187497894194625,-1.9904473976735495,0.2891119689906751,4.890666310076774,0.7482493964567967,1.0,1.1613693976571668,0.3187497894194625,-1.9904473976735495,0.2891119689906751,4.890666310076774,0.7482493964567967,1.0
1.1657030265409982,0.3199255750407325,-1.989227403578184,0.2873385367312777,4.891143015911898,0.7465688752299294,0.0,1.1657030265409982,0.3199255750407325,-1.989227403578184,0.2873385367312777,4.891143015911898,0.7465688752299294,0.0
1.1701234744763662,0.3210575849515843,-1.9879359036075506,0.2856149055842648,4.89141891940083,0.7446564592511435,1.0,1.1701234744763662,0.3210575849515843,-1.9879359036075506,0.2856149055842648,4.89141891940083,0.7446564592511435,1.0
1.1739107558625679,0.32197417841976234,-1.9867313558465074,0.28393468396302013,4.8915435553398465,0.7426684760764266,0.0,1.1739107558625679,0.32197417841976234,-1.9867313558465074,0.28393468396302013,4.8915435553398465,0.7426684760764266,0.0
1.1777130841089285,0.3228694333097061,-1.985481933821097,0.28211198322345626,4.891721987132882,0.7404123791589661,1.0,1.1777130841089285,0.3228694333097061,-1.985481933821097,0.28211198322345626,4.891721987132882,0.7404123791589661,1.0
1.1808640031526556,0.3236593268890236,-1.9845940359136645,0.28070353719145424,4.892491108055696,0.7384552220738668,0.0,1.1808640031526556,0.3236593268890236,-1.9845940359136645,0.28070353719145424,4.892491108055696,0.7384552220738668,0.0
1.1836866875920307,0.3244006510679608,-1.9839496840879198,0.2795908684880192,4.8936874000173605,0.7366505975402019,1.0,1.1836866875920307,0.3244006510679608,-1.9839496840879198,0.2795908684880192,4.8936874000173605,0.7366505975402019,1.0
1.1863601018523067,0.325089544262937,-1.9835523404532802,0.27886996742569153,4.895152138616903,0.7349045625505187,0.0,1.1863601018523067,0.325089544262937,-1.9835523404532802,0.27886996742569153,4.895152138616903,0.7349045625505187,0.0
1.1889850465807434,0.32574811071099996,-1.9833261049186777,0.2784430127686814,4.8967399152588085,0.7331858249620088,1.0,1.1889850465807434,0.32574811071099996,-1.9833261049186777,0.2784430127686814,4.8967399152588085,0.7331858249620088,1.0
1.1917375567253947,0.32640641084295396,-1.9832466095601389,0.278334721980856,4.8982238286182005,0.7314656226348993,0.0,1.1917375567253947,0.32640641084295396,-1.9832466095601389,0.278334721980856,4.8982238286182005,0.7314656226348993,0.0
1.1945890033045428,0.32707253401061004,-1.9832458106118116,0.2784231555738035,4.8996576745491,0.7297552740038232,1.0,1.1945890033045428,0.32707253401061004,-1.9832458106118116,0.2784231555738035,4.8996576745491,0.7297552740038232,1.0
1.1975156841844852,0.3277690837937203,-1.9832254374294729,0.2785763372707535,4.901204971142436,0.7281074430793367,0.0,1.1975156841844852,0.3277690837937203,-1.9832254374294729,0.2785763372707535,4.901204971142436,0.7281074430793367,0.0
1.2005070798789168,0.3284940628214671,-1.9832066621437876,0.27878276554474823,4.902812455176408,0.726482848235361,1.0,1.2005070798789168,0.3284940628214671,-1.9832066621437876,0.27878276554474823,4.902812455176408,0.726482848235361,1.0
1.20361472255493,0.32926701203834896,-1.9832812306543097,0.2791112331756959,4.904345370699858,0.7247797567182555,0.0,1.20361472255493,0.32926701203834896,-1.9832812306543097,0.2791112331756959,4.904345370699858,0.7247797567182555,0.0
1.2066912062461896,0.33003942862301283,-1.98343822400057,0.279505347727514,4.905771227147485,0.7230734694078417,1.0,1.2066912062461896,0.33003942862301283,-1.98343822400057,0.279505347727514,4.905771227147485,0.7230734694078417,1.0
1.2101836756997197,0.33089377070071024,-1.98378177178119,0.27997945698057536,4.907331306914053,0.7210907459762776,0.0,1.2101836756997197,0.33089377070071024,-1.98378177178119,0.27997945698057536,4.907331306914053,0.7210907459762776,0.0
1.2136797404207211,0.3317077325983793,-1.9842434307561556,0.28047437217965293,4.90880350236465,0.7190780619824502,1.0,1.2136797404207211,0.3317077325983793,-1.9842434307561556,0.28047437217965293,4.90880350236465,0.7190780619824502,1.0
1.2173959154058176,0.3324398688715557,-1.9848466367430584,0.2810437893102255,4.910073830204618,0.7169307551955193,0.0,1.2173959154058176,0.3324398688715557,-1.9848466367430584,0.2810437893102255,4.910073830204618,0.7169307551955193,0.0
1.2212633579408307,0.3331141479700502,-1.9855644918148894,0.2816624749209645,4.9111492146527915,0.7146748580151405,1.0,1.2212633579408307,0.3331141479700502,-1.9855644918148894,0.2816624749209645,4.9111492146527915,0.7146748580151405,1.0
1.2252294705942313,0.3337560363717865,-1.9864467970840325,0.282303198189724,4.911883181849217,0.7122712885523168,0.0,1.2252294705942313,0.3337560363717865,-1.9864467970840325,0.282303198189724,4.911883181849217,0.7122712885523168,0.0
1.2290270051506298,0.33435964183285294,-1.9874448167025396,0.28299738441736677,4.91245150042584,0.7099138583553786,1.0,1.2290270051506298,0.33435964183285294,-1.9874448167025396,0.28299738441736677,4.91245150042584,0.7099138583553786,1.0
1.2327746054365891,0.33503485303772895,-1.9888757331562392,0.28416191818303116,4.913418760533757,0.7075591578985578,0.0,1.2327746054365891,0.33503485303772895,-1.9888757331562392,0.28416191818303116,4.913418760533757,0.7075591578985578,0.0
1.236038708826645,0.3357143918793763,-1.9905037235306047,0.285547327871604,4.914654999911772,0.7054972720035912,1.0,1.236038708826645,0.3357143918793763,-1.9905037235306047,0.285547327871604,4.914654999911772,0.7054972720035912,1.0
1.2386551314395933,0.3364419674891859,-1.9922699319655452,0.2869348347995353,4.916194307021837,0.7038637555699638,0.0,1.2386551314395933,0.3364419674891859,-1.9922699319655452,0.2869348347995353,4.916194307021837,0.7038637555699638,0.0
1.2410920569950703,0.3372805303374246,-1.9943188349501977,0.2884832632363346,4.918102728258988,0.7023678579856664,1.0,1.2410920569950703,0.3372805303374246,-1.9943188349501977,0.2884832632363346,4.918102728258988,0.7023678579856664,1.0
1.2431606673717892,0.33808287419483823,-1.9963300542054259,0.2900820919967637,4.920000496851778,0.7011436694115841,0.0,1.2431606673717892,0.33808287419483823,-1.9963300542054259,0.2900820919967637,4.920000496851778,0.7011436694115841,0.0
1.2450023764236335,0.3388179066557001,-1.9982778902267095,0.291680188387893,4.921840208532806,0.7001150900195683,1.0,1.2450023764236335,0.3388179066557001,-1.9982778902267095,0.291680188387893,4.921840208532806,0.7001150900195683,1.0
1.2468960171167345,0.3394155532938275,-2.000312678457585,0.2933440315684336,4.923734781332288,0.6992437702899216,0.0,1.2468960171167345,0.3394155532938275,-2.000312678457585,0.2933440315684336,4.923734781332288,0.6992437702899216,0.0
1.248730136159472,0.33988836425585744,-2.0023529261686943,0.29500111697770814,4.9255622424723,0.6985052757196427,1.0,1.248730136159472,0.33988836425585744,-2.0023529261686943,0.29500111697770814,4.9255622424723,0.6985052757196427,1.0
1.250258657467123,0.3402755212993277,-2.004409286004399,0.29664891461268106,4.92709515799575,0.6978210430565741,0.0,1.250258657467123,0.3402755212993277,-2.004409286004399,0.29664891461268106,4.92709515799575,0.6978210430565741,0.0
1.2515384395289606,0.34063614660043806,-2.0065178437974693,0.2983266062308901,4.92850183968353,0.6971518572536644,1.0,1.2515384395289606,0.34063614660043806,-2.0065178437974693,0.2983266062308901,4.92850183968353,0.6971518572536644,1.0
1.2522540309138648,0.3410213395626044,-2.008340378089465,0.29978864837983,4.929917043486798,0.6965850034156411,0.0,1.2522540309138648,0.3410213395626044,-2.008340378089465,0.29978864837983,4.929917043486798,0.6965850034156411,0.0
1.2526118266063169,0.3414189828028669,-2.0099675695155033,0.301052817659777,4.931302419885857,0.6960945823009029,1.0,1.2526118266063169,0.3414189828028669,-2.0099675695155033,0.301052817659777,4.931302419885857,0.6960945823009029,1.0
1.2527022409253252,0.34174448766710186,-2.0112558736928294,0.30179424170725505,4.93228406106366,0.6957581584761987,0.0,1.2527022409253252,0.34174448766710186,-2.0112558736928294,0.30179424170725505,4.93228406106366,0.6957581584761987,0.0
1.252598377642812,0.3420111699607596,-2.0122467027763933,0.3021460119977409,4.932943992381782,0.6955480350661915,1.0,1.252598377642812,0.3420111699607596,-2.0122467027763933,0.3021460119977409,4.932943992381782,0.6955480350661915,1.0
1.2522589577618815,0.3422166994178865,-2.012765087082577,0.3021470439726633,4.933266234873681,0.6955040263291778,0.0,1.2522589577618815,0.3422166994178865,-2.012765087082577,0.3021470439726633,4.933266234873681,0.6955040263291778,0.0
1.251754688209475,0.34236813341537115,-2.012845115073334,0.30181058685844536,4.933202851639738,0.695603162500756,1.0,1.251754688209475,0.34236813341537115,-2.012845115073334,0.30181058685844536,4.933202851639738,0.695603162500756,1.0
1.2511123337545478,0.34242529151026696,-2.0121416410713895,0.30077971048998936,4.932190850425508,0.6959300655245633,0.0,1.2511123337545478,0.34242529151026696,-2.0121416410713895,0.30077971048998936,4.932190850425508,0.6959300655245633,0.0
1.2504014029015513,0.34239915924207054,-2.010883164298273,0.2992889394907902,4.930566854792778,0.6964089684675868,1.0,1.2504014029015513,0.34239915924207054,-2.010883164298273,0.2992889394907902,4.930566854792778,0.6964089684675868,1.0
1.2495087113041567,0.34220857677656175,-2.0087168159095476,0.2970743213073076,4.928213153021365,0.6971408051351405,0.0,1.2495087113041567,0.34220857677656175,-2.0087168159095476,0.2970743213073076,4.928213153021365,0.6971408051351405,0.0
1.248643716582099,0.3419040775954248,-2.006173763384631,0.29465207642733965,4.92566983418034,0.6979520040031787,1.0,1.248643716582099,0.3419040775954248,-2.006173763384631,0.29465207642733965,4.92566983418034,0.6979520040031787,1.0
1.2478919062063696,0.34137950143970647,-2.00295679794587,0.29183731489220766,4.922700942197119,0.6989036180396913,0.0,1.2478919062063696,0.34137950143970647,-2.00295679794587,0.29183731489220766,4.922700942197119,0.6989036180396913,0.0
1.2472985539155,0.3406676051908147,-1.9991838976295544,0.2886971816508952,4.919344293959183,0.6999431829712037,1.0,1.2472985539155,0.3406676051908147,-1.9991838976295544,0.2886971816508952,4.919344293959183,0.6999431829712037,1.0
1.247136633721223,0.3398272114193265,-1.995200074954905,0.28549253333217567,4.915753820177539,0.7008698298724968,0.0,1.247136633721223,0.3398272114193265,-1.995200074954905,0.28549253333217567,4.915753820177539,0.7008698298724968,0.0
1.2472551443897317,0.33888571739495627,-1.9910342252197486,0.2822315258668872,4.911973196694062,0.7017351574896907,1.0,1.2472551443897317,0.33888571739495627,-1.9910342252197486,0.2822315258668872,4.911973196694062,0.7017351574896907,1.0
1.2475507552707303,0.33787554710397555,-1.9869384166212614,0.27920109821772926,4.908302295447497,0.7025404308243034,0.0,1.2475507552707303,0.33787554710397555,-1.9869384166212614,0.27920109821772926,4.908302295447497,0.7025404308243034,0.0
1.2479580857594579,0.33680895108739883,-1.982894939138194,0.27630883869487594,4.9047246048390845,0.7032837856635719,1.0,1.2479580857594579,0.33680895108739883,-1.982894939138194,0.27630883869487594,4.9047246048390845,0.7032837856635719,1.0
1.2484301310626746,0.33569451803974154,-1.978996870250645,0.27347781523233766,4.901348249209081,0.7038674174164627,0.0,1.2484301310626746,0.33569451803974154,-1.978996870250645,0.27347781523233766,4.901348249209081,0.7038674174164627,0.0
1.2490145617638924,0.33444263259032253,-1.974764308330182,0.2703661778146891,4.897715697482214,0.7043957219977072,1.0,1.2490145617638924,0.33444263259032253,-1.974764308330182,0.2703661778146891,4.897715697482214,0.7043957219977072,1.0
1.2496953988965713,0.333316381765328,-1.9707197655826787,0.26738929634819847,4.89417582376128,0.7048212951399019,0.0,1.2496953988965713,0.333316381765328,-1.9707197655826787,0.26738929634819847,4.89417582376128,0.7048212951399019,0.0
1.2504405513695753,0.33227082472136293,-1.966711308667946,0.26441487830571625,4.890635417408129,0.7051894771606053,1.0,1.2504405513695753,0.33227082472136293,-1.966711308667946,0.26441487830571625,4.890635417408129,0.7051894771606053,1.0
1.2511602706541693,0.33137207443248845,-1.962779151318444,0.26136569201563,4.887234560696098,0.7054937433151469,0.0,1.2511602706541693,0.33137207443248845,-1.962779151318444,0.26136569201563,4.887234560696098,0.7054937433151469,0.0
1.2519339189508374,0.33053337842619523,-1.958586536814332,0.2580125058871113,4.883649945868851,0.7057650528511986,1.0,1.2519339189508374,0.33053337842619523,-1.958586536814332,0.2580125058871113,4.883649945868851,0.7057650528511986,1.0
1.2528250126515779,0.3299005447721652,-1.9543213511705158,0.25451520945410555,4.879944956160333,0.7059370930576178,0.0,1.2528250126515779,0.3299005447721652,-1.9543213511705158,0.25451520945410555,4.879944956160333,0.7059370930576178,0.0
1.2537938706561487,0.3294258030183449,-1.949997442824663,0.2508989362994006,4.876144092652572,0.7060279734298167,1.0,1.2537938706561487,0.3294258030183449,-1.949997442824663,0.2508989362994006,4.876144092652572,0.7060279734298167,1.0
1.2548105324022865,0.32910602395045363,-1.9453915057193711,0.24691498046669658,4.872069456184751,0.7060089318280227,0.0,1.2548105324022865,0.32910602395045363,-1.9453915057193711,0.24691498046669658,4.872069456184751,0.7060089318280227,0.0
1.255757153011755,0.32893814493323775,-1.9409585409268797,0.2429832891703853,4.868120520920381,0.7059026717005286,1.0,1.255757153011755,0.32893814493323775,-1.9409585409268797,0.2429832891703853,4.868120520920381,0.7059026717005286,1.0
1.256576208205009,0.329002926326754,-1.9366418231159703,0.23902355145884419,4.864183836197026,0.7056611895686855,0.0,1.256576208205009,0.329002926326754,-1.9366418231159703,0.23902355145884419,4.864183836197026,0.7056611895686855,0.0
1.257284342738861,0.329222503958631,-1.9323806322137889,0.23500064689519778,4.860250879899198,0.7053379483913772,1.0,1.257284342738861,0.329222503958631,-1.9323806322137889,0.23500064689519778,4.860250879899198,0.7053379483913772,1.0
1.2578159096924408,0.3295073623267286,-1.928143809235582,0.2308335155137667,4.8563940900085445,0.7050217645909576,0.0,1.2578159096924408,0.3295073623267286,-1.928143809235582,0.2308335155137667,4.8563940900085445,0.7050217645909576,0.0
1.2582312296644387,0.329814225063333,-1.9239404089290553,0.2265816290306439,4.852603879145144,0.7047310805579754,1.0,1.2582312296644387,0.329814225063333,-1.9239404089290553,0.2265816290306439,4.852603879145144,0.7047310805579754,1.0
1.25857717429004,0.3300629643091464,-1.9200054552604087,0.22251278493819357,4.849052287515414,0.7045275484716661,0.0,1.25857717429004,0.3300629643091464,-1.9200054552604087,0.22251278493819357,4.849052287515414,0.7045275484716661,0.0
1.2589397636724544,0.3302600049402986,-1.915838140786653,0.2181592489252138,4.845297230378402,0.7043538437895657,1.0,1.2589397636724544,0.3302600049402986,-1.915838140786653,0.2181592489252138,4.845297230378402,0.7043538437895657,1.0
1.2593747910365187,0.33025584375109535,-1.9119656382455685,0.21417168118028135,4.841866546262162,0.7041624956652435,0.0,1.2593747910365187,0.33025584375109535,-1.9119656382455685,0.21417168118028135,4.841866546262162,0.7041624956652435,0.0
1.2598664105737474,0.33011303173763984,-1.9083353502056268,0.21048758064156342,4.838684601391735,0.7039700822764853,1.0,1.2598664105737474,0.33011303173763984,-1.9083353502056268,0.21048758064156342,4.838684601391735,0.7039700822764853,1.0
1.2605270076821415,0.3297980130701971,-1.9044772287344292,0.20666291513155974,4.835296527852936,0.7038152860381244,0.0,1.2605270076821415,0.3297980130701971,-1.9044772287344292,0.20666291513155974,4.835296527852936,0.7038152860381244,0.0
1.261241800118719,0.3294041315449744,-1.9009543992444722,0.20323427832040764,4.832145475651155,0.703683326406111,1.0,1.261241800118719,0.3294041315449744,-1.9009543992444722,0.20323427832040764,4.832145475651155,0.703683326406111,1.0
1.2621338259258408,0.3289235641262696,-1.8974299718578616,0.19986732697800455,4.828719052592659,0.7034344540022431,0.0,1.2621338259258408,0.3289235641262696,-1.8974299718578616,0.19986732697800455,4.828719052592659,0.7034344540022431,0.0
1.263216667225067,0.3283507847548208,-1.8936196541282306,0.1962756880633828,4.824801542629152,0.7030628098721224,1.0,1.263216667225067,0.3283507847548208,-1.8936196541282306,0.1962756880633828,4.824801542629152,0.7030628098721224,1.0
1.264253169521326,0.32780633475946774,-1.8898837717510673,0.19279092513225732,4.820865923170233,0.7026052787968469,0.0,1.264253169521326,0.32780633475946774,-1.8898837717510673,0.19279092513225732,4.820865923170233,0.7026052787968469,0.0
1.2651951295988868,0.3273179775945744,-1.8863870412397934,0.189545663606914,4.817141758701866,0.702114657945027,1.0,1.2651951295988868,0.3273179775945744,-1.8863870412397934,0.189545663606914,4.817141758701866,0.702114657945027,1.0
1.266020310062648,0.3269125113186099,-1.8832658164422207,0.18663484518021423,4.813823459983628,0.7016178452436728,0.0,1.266020310062648,0.3269125113186099,-1.8832658164422207,0.18663484518021423,4.813823459983628,0.7016178452436728,0.0
1.266811135748347,0.32650181858900607,-1.8802063769819375,0.18379162111093197,4.8106329929977125,0.701127490707962,1.0,1.266811135748347,0.32650181858900607,-1.8802063769819375,0.18379162111093197,4.8106329929977125,0.701127490707962,1.0
1.2675202023885805,0.3258991785238347,-1.8772565266005112,0.1811796426480527,4.807896328661547,0.7008674330275158,0.0,1.2675202023885805,0.3258991785238347,-1.8772565266005112,0.1811796426480527,4.807896328661547,0.7008674330275158,0.0
1.2681164841566492,0.32516404619443195,-1.8746721950786984,0.17902695960467124,4.8057743219049724,0.7008161005975044,1.0,1.2681164841566492,0.32516404619443195,-1.8746721950786984,0.17902695960467124,4.8057743219049724,0.7008161005975044,1.0
1.2687633659854296,0.3239830008300091,-1.8720576366785133,0.17715903506084646,4.803991601871274,0.700996729498439,0.0,1.2687633659854296,0.3239830008300091,-1.8720576366785133,0.17715903506084646,4.803991601871274,0.700996729498439,0.0
1.2694330178415298,0.322455378339226,-1.8694698430472831,0.1755812119835154,4.802504492718573,0.7013416088596043,1.0,1.2694330178415298,0.322455378339226,-1.8694698430472831,0.1755812119835154,4.802504492718573,0.7013416088596043,1.0
1.270111324971173,0.32046200226330174,-1.866794564574244,0.17433397042124724,4.801234697510823,0.7018063970488504,0.0,1.270111324971173,0.32046200226330174,-1.866794564574244,0.17433397042124724,4.801234697510823,0.7018063970488504,0.0
1.2707508831069558,0.3181537406779892,-1.8640672213018938,0.17331704235900044,4.800120430910734,0.702383370899016,1.0,1.2707508831069558,0.3181537406779892,-1.8640672213018938,0.17331704235900044,4.800120430910734,0.702383370899016,1.0
1.2711468951610505,0.31566584887715077,-1.861386217032511,0.17248576991424586,4.799195781380258,0.7032172732153471,0.0,1.2711468951610505,0.31566584887715077,-1.861386217032511,0.17248576991424586,4.799195781380258,0.7032172732153471,0.0
1.271299494291512,0.3129756234124936,-1.8586219889790634,0.17172453860616033,4.798343037199215,0.7042905937136763,1.0,1.271299494291512,0.3129756234124936,-1.8586219889790634,0.17172453860616033,4.798343037199215,0.7042905937136763,1.0
1.270998823404442,0.3104781109422173,-1.8560119579527312,0.170987142589831,4.797507337249148,0.7054553272164225,0.0,1.270998823404442,0.3104781109422173,-1.8560119579527312,0.170987142589831,4.797507337249148,0.7054553272164225,0.0
1.2702309009041177,0.30780100154592877,-1.853162508744401,0.1701636432465081,4.79656457822326,0.7068749252354892,1.0,1.2702309009041177,0.30780100154592877,-1.853162508744401,0.1701636432465081,4.79656457822326,0.7068749252354892,1.0
1.2687367343745288,0.30538408298814096,-1.8505267782135493,0.16940655648286898,4.795679876109135,0.7084917969123036,0.0,1.2687367343745288,0.30538408298814096,-1.8505267782135493,0.16940655648286898,4.795679876109135,0.7084917969123036,0.0
1.2667054082530709,0.3030759878503966,-1.8479772009439621,0.1686686777685921,4.794848969849031,0.7102966211830503,1.0,1.2667054082530709,0.3030759878503966,-1.8479772009439621,0.1686686777685921,4.794848969849031,0.7102966211830503,1.0
1.2642213447462995,0.300825849755875,-1.8455233643155633,0.16790899442289017,4.7942050174974495,0.7122997177969533,0.0,1.2642213447462995,0.300825849755875,-1.8455233643155633,0.16790899442289017,4.7942050174974495,0.7122997177969533,0.0
1.2614776230332452,0.29856812165224667,-1.843115999848186,0.16710282227140955,4.793620187322069,0.7144078095368329,1.0,1.2614776230332452,0.29856812165224667,-1.843115999848186,0.16710282227140955,4.793620187322069,0.7144078095368329,1.0
1.2587030086515463,0.2961233397715539,-1.8406648263808771,0.16614015611637317,4.792761051554408,0.7164712933284535,0.0,1.2587030086515463,0.2961233397715539,-1.8406648263808771,0.16614015611637317,4.792761051554408,0.7164712933284535,0.0
1.2558972352850932,0.2935418045688856,-1.8382173813390943,0.16510952941926932,4.79180763988416,0.7185438318677805,1.0,1.2558972352850932,0.2935418045688856,-1.8382173813390943,0.16510952941926932,4.79180763988416,0.7185438318677805,1.0
1.2529517791194655,0.29086742491271445,-1.8359417101876216,0.16422029993129186,4.791269681343964,0.7208351490906574,0.0,1.2529517791194655,0.29086742491271445,-1.8359417101876216,0.16422029993129186,4.791269681343964,0.7208351490906574,0.0
1.2499055223065785,0.2881416795370183,-1.8338022597259065,0.16344974755939107,4.791055563192322,0.7232678135883901,1.0,1.2499055223065785,0.2881416795370183,-1.8338022597259065,0.16344974755939107,4.791055563192322,0.7232678135883901,1.0
1.2467880259345316,0.28541064112865566,-1.8317987636378399,0.1628021832955815,4.791114685368522,0.7257164570526636,0.0,1.2467880259345316,0.28541064112865566,-1.8317987636378399,0.1628021832955815,4.791114685368522,0.7257164570526636,0.0
1.2437636070425833,0.28281755446475915,-1.829984618303278,0.16225803290585106,4.791336793003435,0.7280659643453588,1.0,1.2437636070425833,0.28281755446475915,-1.829984618303278,0.16225803290585106,4.791336793003435,0.7280659643453588,1.0
1.240644113299719,0.28028032760472704,-1.8282916467983146,0.16174793768856,4.791674481829657,0.7304998272655822,0.0,1.240644113299719,0.28028032760472704,-1.8282916467983146,0.16174793768856,4.791674481829657,0.7304998272655822,0.0
1.2375784154108742,0.2778501431757593,-1.826717851752132,0.16126590553125564,4.7920696949354245,0.7329099214730765,1.0,1.2375784154108742,0.2778501431757593,-1.826717851752132,0.16126590553125564,4.7920696949354245,0.7329099214730765,1.0
1.2346875540475932,0.2754171790724038,-1.8251174250950488,0.16075932235765214,4.792449994339088,0.7352357932110973,0.0,1.2346875540475932,0.2754171790724038,-1.8251174250950488,0.16075932235765214,4.792449994339088,0.7352357932110973,0.0
1.231976056583729,0.2729650402091997,-1.823440166240517,0.16019012160891816,4.792725365195802,0.7374701187866465,1.0,1.231976056583729,0.2729650402091997,-1.823440166240517,0.16019012160891816,4.792725365195802,0.7374701187866465,1.0
1.2296472553685092,0.2704598378612758,-1.821475419146311,0.15936797049089704,4.7924808870077324,0.7394910585798532,0.0,1.2296472553685092,0.2704598378612758,-1.821475419146311,0.15936797049089704,4.7924808870077324,0.7394910585798532,0.0
1.227529509669678,0.2678016369087268,-1.8191772442836271,0.15831149448646262,4.791840663081677,0.7414455525038622,1.0,1.227529509669678,0.2678016369087268,-1.8191772442836271,0.15831149448646262,4.791840663081677,0.7414455525038622,1.0
1.225757042806176,0.26515788360509157,-1.8166589591568485,0.1571404193313707,4.791051302134578,0.7432921218246961,0.0,1.225757042806176,0.26515788360509157,-1.8166589591568485,0.1571404193313707,4.791051302134578,0.7432921218246961,0.0
1.2241733940639603,0.2624580707605101,-1.813938939577496,0.15589309454531847,4.79016233896271,0.7451185842792996,1.0,1.2241733940639603,0.2624580707605101,-1.813938939577496,0.15589309454531847,4.79016233896271,0.7451185842792996,1.0
1.2228013334703516,0.25973726887758747,-1.8111000098554715,0.1546870986904329,4.789195611487011,0.74689957325829,0.0,1.2228013334703516,0.25973726887758747,-1.8111000098554715,0.1546870986904329,4.789195611487011,0.74689957325829,0.0
1.2216107673050316,0.25711375559823674,-1.8083139438810851,0.15355818470434832,4.7882320798046205,0.7485957405565615,1.0,1.2216107673050316,0.25711375559823674,-1.8083139438810851,0.15355818470434832,4.7882320798046205,0.7485957405565615,1.0
1.2203785226686519,0.25425848072502194,-1.805293120256608,0.15233010125717192,4.787223807015916,0.7505107531174103,0.0,1.2203785226686519,0.25425848072502194,-1.805293120256608,0.15233010125717192,4.787223807015916,0.7505107531174103,0.0
1.2192541360564204,0.2516290585570026,-1.8025338190511773,0.1512065801722947,4.786332180682958,0.7523316895127519,1.0,1.2192541360564204,0.2516290585570026,-1.8025338190511773,0.1512065801722947,4.786332180682958,0.7523316895127519,1.0
1.2180088419306994,0.24896571437459844,-1.7998108699946256,0.15012197452884632,4.785485828088531,0.7542613494595961,0.0,1.2180088419306994,0.24896571437459844,-1.7998108699946256,0.15012197452884632,4.785485828088531,0.7542613494595961,0.0
1.2166776608598233,0.24638070041775623,-1.7972317316369384,0.14913052958928028,4.784727359810076,0.7562260299747748,1.0,1.2166776608598233,0.24638070041775623,-1.7972317316369384,0.14913052958928028,4.784727359810076,0.7562260299747748,1.0
1.2151444790202648,0.24395702408870237,-1.7949077241116809,0.14834824266382632,4.784172357038903,0.7582870503423872,0.0,1.2151444790202648,0.24395702408870237,-1.7949077241116809,0.14834824266382632,4.784172357038903,0.7582870503423872,0.0
1.2133745421597981,0.24154468283903816,-1.792688645133372,0.14768441647261044,4.783801112382947,0.7605480741078645,1.0,1.2133745421597981,0.24154468283903816,-1.792688645133372,0.14768441647261044,4.783801112382947,0.7605480741078645,1.0
1.211541621539551,0.23933024774788045,-1.7907924744372357,0.1471287479111654,4.78379738395742,0.7628887929689623,0.0,1.211541621539551,0.23933024774788045,-1.7907924744372357,0.1471287479111654,4.78379738395742,0.7628887929689623,0.0
1.2094985775092968,0.23701807464471686,-1.7889161442912205,0.14656292604806442,4.784007773683537,0.7655038840013657,1.0,1.2094985775092968,0.23701807464471686,-1.7889161442912205,0.14656292604806442,4.784007773683537,0.7655038840013657,1.0
1.207388022345409,0.23466893353667156,-1.7870958736861513,0.14590956940888394,4.784221891835179,0.7682002014470164,0.0,1.207388022345409,0.23466893353667156,-1.7870958736861513,0.14590956940888394,4.784221891835179,0.7682002014470164,0.0
1.2052469739870397,0.23229529134659757,-1.7852986394245114,0.14519103190202373,4.784407780479266,0.7709142289139161,1.0,1.2052469739870397,0.23229529134659757,-1.7852986394245114,0.14519103190202373,4.784407780479266,0.7709142289139161,1.0
1.2031290951301543,0.2299198515227878,-1.7834635882753922,0.1444383393541833,4.7845079153362535,0.7734990264889198,0.0,1.2031290951301543,0.2299198515227878,-1.7834635882753922,0.1444383393541833,4.7845079153362535,0.7734990264889198,0.0
1.2010405110452596,0.22755829342616,-1.7816062997311708,0.14366524033449007,4.78452229640614,0.7759770978832384,1.0,1.2010405110452596,0.22755829342616,-1.7816062997311708,0.14366524033449007,4.78452229640614,0.7759770978832384,1.0
1.1989391437871326,0.22518240419391625,-1.7797048027128544,0.14284550270620688,4.784345995141977,0.7784370597821447,0.0,1.1989391437871326,0.22518240419391625,-1.7797048027128544,0.14284550270620688,4.784345995141977,0.7784370597821447,0.0
1.1970688057535699,0.22304791386973138,-1.7779802727489735,0.1420849704779075,4.784061036905339,0.7806321037316153,1.0,1.1970688057535699,0.22304791386973138,-1.7779802727489735,0.1420849704779075,4.784061036905339,0.7806321037316153,1.0
1.1952863520359798,0.22089138588752608,-1.7762490848823675,0.14131603264741757,4.783689792249381,0.7828438590169261,0.0,1.1952863520359798,0.22089138588752608,-1.7762490848823675,0.14131603264741757,4.783689792249381,0.7828438590169261,0.0
1.1936178816130452,0.21878835415371778,-1.7745662333895464,0.14056377286325425,4.783256762256134,0.7849924308053747,1.0,1.1936178816130452,0.21878835415371778,-1.7745662333895464,0.14056377286325425,4.783256762256134,0.7849924308053747,1.0
1.1919948180866964,0.21675909198210463,-1.7729229298389129,0.13981638999283716,4.782712412129322,0.787035474835629,0.0,1.1919948180866964,0.21675909198210463,-1.7729229298389129,0.13981638999283716,4.782712412129322,0.787035474835629,0.0
1.1904021145967745,0.2147867049445215,-1.771294806306493,0.1390601021775251,4.782058872397816,0.788985175069676,1.0,1.1904021145967745,0.2147867049445215,-1.771294806306493,0.1390601021775251,4.782058872397816,0.788985175069676,1.0
1.188858679587019,0.21288236167278993,-1.7696239390385775,0.13824139652416428,4.7811848229280525,0.7907749524802637,0.0,1.188858679587019,0.21288236167278993,-1.7696239390385775,0.13824139652416428,4.7811848229280525,0.7907749524802637,0.0
1.1873397456592925,0.2110384555130463,-1.7679241764728342,0.13735478026300646,4.780139798516306,0.7924231828789139,1.0,1.1873397456592925,0.2110384555130463,-1.7679241764728342,0.13735478026300646,4.780139798516306,0.7924231828789139,1.0
1.1857864569535037,0.20930620238200426,-1.7662276097003993,0.1363131347368924,4.778914744414869,0.7938305969359933,0.0,1.1857864569535037,0.20930620238200426,-1.7662276097003993,0.1363131347368924,4.778914744414869,0.7938305969359933,0.0
1.1841187854788962,0.20762904339601324,-1.7645235860769122,0.13512142008335237,4.777552271201184,0.7951099129446402,1.0,1.1841187854788962,0.20762904339601324,-1.7645235860769122,0.13512142008335237,4.777552271201184,0.7951099129446402,1.0
1.182383602870655,0.20627585795663034,-1.7631649744468083,0.1339443528158078,4.776357577136175,0.7961972816177196,0.0,1.182383602870655,0.20627585795663034,-1.7631649744468083,0.1339443528158078,4.776357577136175,0.7961972816177196,0.0
1.1805468206668275,0.20514869167001112,-1.7620465799470293,0.13274951727036535,4.7752550284448825,0.7971648746207726,1.0,1.1805468206668275,0.20514869167001112,-1.7620465799470293,0.13274951727036535,4.7752550284448825,0.7971648746207726,1.0
1.1785996504358158,0.2043737450823117,-1.7612658742734728,0.13152853281196966,4.774217993516405,0.7979240752685269,0.0,1.1785996504358158,0.2043737450823117,-1.7612658742734728,0.13152853281196966,4.774217993516405,0.7979240752685269,0.0
1.1766641981136008,0.20391438308378665,-1.7607889021222396,0.13034885231760546,4.77325020077627,0.7984760819834732,1.0,1.1766641981136008,0.20391438308378665,-1.7607889021222396,0.13034885231760546,4.77325020077627,0.7984760819834732,1.0
1.1746162272353298,0.20391504887405917,-1.760758675243867,0.12916126556375504,4.772203045835652,0.7987244883341503,0.0,1.1746162272353298,0.20391504887405917,-1.760758675243867,0.12916126556375504,4.772203045835652,0.7987244883341503,0.0
1.1725327031565063,0.20431746915952695,-1.7611182019910276,0.12803399108621655,4.771150031940635,0.7987186293797521,1.0,1.1725327031565063,0.20431746915952695,-1.7611182019910276,0.12803399108621655,4.771150031940635,0.7987186293797521,1.0
1.1703394568407717,0.20530189001171795,-1.7620341962479604,0.127090874198057,4.770223251881286,0.798434802986577,0.0,1.1703394568407717,0.20530189001171795,-1.7620341962479604,0.127090874198057,4.770223251881286,0.798434802986577,0.0
1.1679609876712218,0.20678716824116875,-1.763406656315733,0.12621432801477106,4.769346539250432,0.7979421847639394,1.0,1.1679609876712218,0.20678716824116875,-1.763406656315733,0.12621432801477106,4.769346539250432,0.7979421847639394,1.0
1.1656508285836327,0.20858230526345028,-1.7649788534652613,0.1253169009840632,4.7685326772213035,0.7973698048666542,0.0,1.1656508285836327,0.20858230526345028,-1.7649788534652613,0.1253169009840632,4.7685326772213035,0.7973698048666542,0.0
1.1631587755935908,0.2107507841810473,-1.7668256225231767,0.12430207848355328,4.7676628888092845,0.7966901661564659,1.0,1.1631587755935908,0.2107507841810473,-1.7668256225231767,0.12430207848355328,4.7676628888092845,0.7966901661564659,1.0
1.1605799035520128,0.2131742441282626,-1.7688564160124167,0.12320918375121202,4.766717999254524,0.7959097267990184,0.0,1.1605799035520128,0.2131742441282626,-1.7688564160124167,0.12320918375121202,4.766717999254524,0.7959097267990184,0.0
1.1578443044802833,0.21588660711948104,-1.771089476586448,0.12201693646545397,4.765677768532739,0.7950178341499508,1.0,1.1578443044802833,0.21588660711948104,-1.771089476586448,0.12201693646545397,4.765677768532739,0.7950178341499508,1.0
1.155211503426631,0.21869134851101163,-1.7732881823824174,0.120830648002635,4.764644462029788,0.7940749419660083,0.0,1.155211503426631,0.21869134851101163,-1.7732881823824174,0.120830648002635,4.764644462029788,0.7940749419660083,0.0
1.1525771044763247,0.22163447441068543,-1.7755105903120887,0.11964811293247735,4.763650037678753,0.7931138737076258,1.0,1.1525771044763247,0.22163447441068543,-1.7755105903120887,0.11964811293247735,4.763650037678753,0.7931138737076258,1.0
1.1499235307661697,0.22471250606432858,-1.7777294029742878,0.11859117087485214,4.762933114713304,0.7923036069459692,0.0,1.1499235307661697,0.22471250606432858,-1.7777294029742878,0.11859117087485214,4.762933114713304,0.7923036069459692,0.0
1.1473533139981342,0.22783165026729985,-1.779913195068153,0.11766393308469222,4.762388231954273,0.7915894802996645,1.0,1.1473533139981342,0.22783165026729985,-1.779913195068153,0.11766393308469222,4.762388231954273,0.7915894802996645,1.0
1.1452574062202419,0.23077262899334477,-1.7819425238187931,0.1169871239831622,4.7618337618153195,0.7908716918068609,0.0,1.1452574062202419,0.23077262899334477,-1.7819425238187931,0.1169871239831622,4.7618337618153195,0.7908716918068609,0.0
1.1435616383961338,0.2334804812554669,-1.7837821023417657,0.11647123639050022,4.761308586448355,0.7901895896726643,1.0,1.1435616383961338,0.2334804812554669,-1.7837821023417657,0.11647123639050022,4.761308586448355,0.7901895896726643,1.0
1.1424265991395421,0.23552742015881545,-1.785107823932407,0.11602424144628723,4.761016703992882,0.789741912293422,0.0,1.1424265991395421,0.23552742015881545,-1.785107823932407,0.11602424144628723,4.761016703992882,0.789741912293422,0.0
1.1416224576483927,0.2372861051636765,-1.786192129970233,0.11560867180293719,4.7608659690751844,0.7893959010887935,1.0,1.1416224576483927,0.2372861051636765,-1.786192129970233,0.11560867180293719,4.7608659690751844,0.7893959010887935,1.0
1.1413713215575982,0.23855461872515168,-1.7869665772152277,0.11543686462311346,4.760809510060074,0.7890390375027229,0.0,1.1413713215575982,0.23855461872515168,-1.7869665772152277,0.11543686462311346,4.760809510060074,0.7890390375027229,0.0
1.1414739864176207,0.23951552053596592,-1.7875476789650833,0.11542509678004667,4.76079459635797,0.7886658620549756,1.0,1.1414739864176207,0.23951552053596592,-1.7875476789650833,0.11542509678004667,4.76079459635797,0.7886658620549756,1.0
1.1419228622193536,0.24036603431959636,-1.7880362358670583,0.11553353737068332,4.7607653015859785,0.7882195828353054,0.0,1.1419228622193536,0.24036603431959636,-1.7880362358670583,0.11553353737068332,4.7607653015859785,0.7882195828353054,0.0
1.1425704098384064,0.24103117544660044,-1.7883857757601311,0.11569483338657967,4.760718962583012,0.7877810933618239,1.0,1.1425704098384064,0.24103117544660044,-1.7883857757601311,0.11569483338657967,4.760718962583012,0.7877810933618239,1.0
1.1433242175849534,0.24142911829248553,-1.7885182680243625,0.11581078908491739,4.760648655130233,0.7874304216252878,0.0,1.1433242175849534,0.24142911829248553,-1.7885182680243625,0.11581078908491739,4.760648655130233,0.7874304216252878,0.0
1.1442111833860042,0.2415745601775175,-1.7884289189697904,0.11588289417143129,4.760563433975351,0.7871489920770937,1.0,1.1442111833860042,0.2415745601775175,-1.7884289189697904,0.11588289417143129,4.760563433975351,0.7871489920770937,1.0
1.1452467535758815,0.2410570081091742,-1.787782836089337,0.11584729103660829,4.760506974960242,0.7870719601425631,0.0,1.1452467535758815,0.2410570081091742,-1.787782836089337,0.11584729103660829,4.760506974960242,0.7870719601425631,0.0
1.1464110876044642,0.239996953482025,-1.786674961075864,0.11573279175449169,4.76044572225517,0.7871463289160034,1.0,1.1464110876044642,0.239996953482025,-1.786674961075864,0.11573279175449169,4.76044572225517,0.7871463289160034,1.0
1.1478522572283605,0.23815437890282642,-1.7848642778507193,0.11554705291321549,4.760234267264617,0.7873555202196292,0.0,1.1478522572283605,0.23815437890282642,-1.7848642778507193,0.11554705291321549,4.760234267264617,0.7873555202196292,0.0
1.1492838394723326,0.23595404192068933,-1.782746132677725,0.11535492248532307,4.759940254280273,0.7876641140109423,1.0,1.1492838394723326,0.23595404192068933,-1.782746132677725,0.11535492248532307,4.759940254280273,0.7876641140109423,1.0
1.1506220779200975,0.233118657531866,-1.780051945760946,0.11523181786393416,4.759576466475368,0.788254070771422,0.0,1.1506220779200975,0.233118657531866,-1.780051945760946,0.11523181786393416,4.759576466475368,0.788254070771422,0.0
1.1518039888118745,0.22989183839707153,-1.777003824735296,0.11515778198562997,4.759167404931931,0.7890656025345963,1.0,1.1518039888118745,0.22989183839707153,-1.777003824735296,0.11515778198562997,4.759167404931931,0.7890656025345963,1.0
1.1527179856979897,0.22630439396116664,-1.7736176154092602,0.11506150871222359,4.7586816443491005,0.7901638235891177,0.0,1.1527179856979897,0.22630439396116664,-1.7736176154092602,0.11506150871222359,4.7586816443491005,0.7901638235891177,0.0
1.1534013528337042,0.22241864219365928,-1.7699452494240953,0.11487671029970732,4.758098412070374,0.79150745493809,1.0,1.1534013528337042,0.22241864219365928,-1.7699452494240953,0.11487671029970732,4.758098412070374,0.79150745493809,1.0
1.153717603213151,0.218028837255584,-1.765768347570415,0.11429113943264774,4.757231819451662,0.79326107993688,0.0,1.153717603213151,0.218028837255584,-1.765768347570415,0.11429113943264774,4.757231819451662,0.79326107993688,0.0
1.1537052195140822,0.2130926515303653,-1.761056150337629,0.11337128359213437,4.756186262407697,0.7953948711812787,1.0,1.1537052195140822,0.2130926515303653,-1.761056150337629,0.11337128359213437,4.756186262407697,0.7953948711812787,1.0
1.1531680599222132,0.20812217760611185,-1.7563209167614136,0.11228676949484845,4.755411282530484,0.7976721402294055,0.0,1.1531680599222132,0.20812217760611185,-1.7563209167614136,0.11228676949484845,4.755411282530484,0.7976721402294055,0.0
1.1522781646439633,0.20302869892901035,-1.751498997291716,0.11108561726419545,4.754801418640856,0.8001091323639097,1.0,1.1522781646439633,0.20302869892901035,-1.751498997291716,0.11108561726419545,4.754801418640856,0.8001091323639097,1.0
1.1511674933113458,0.19790469376791384,-1.7467661605604818,0.10982949572416756,4.754241622179721,0.8027350091987278,0.0,1.1511674933113458,0.19790469376791384,-1.7467661605604818,0.10982949572416756,4.754241622179721,0.8027350091987278,0.0
1.149971467665791,0.19298779931584142,-1.7423205457528124,0.108607121428578,4.753754263700237,0.8053781300016043,1.0,1.149971467665791,0.19298779931584142,-1.7423205457528124,0.108607121428578,4.753754263700237,0.8053781300016043,1.0
1.1486280360539007,0.18794150852430477,-1.7379103509876412,0.10738984042857322,4.753414444345142,0.8082291771065886,0.0,1.1486280360539007,0.18794150852430477,-1.7379103509876412,0.10738984042857322,4.753414444345142,0.8082291771065886,0.0
1.1472338712232442,0.18296465965819195,-1.7336804522282683,0.10623857253408878,4.753233882023235,0.8111470695549339,1.0,1.1472338712232442,0.18296465965819195,-1.7336804522282683,0.10623857253408878,4.753233882023235,0.8111470695549339,1.0
1.1458684685323606,0.17809710026531325,-1.7296785200582065,0.10524378199840331,4.753346267421236,0.8141234849682337,0.0,1.1458684685323606,0.17809710026531325,-1.7296785200582065,0.10524378199840331,4.753346267421236,0.8141234849682337,0.0
1.1445472743155722,0.17333278829894555,-1.725852223362035,0.10436427304840463,4.753666912016482,0.8171194080365183,1.0,1.1445472743155722,0.17333278829894555,-1.725852223362035,0.10436427304840463,4.753666912016482,0.8171194080365183,1.0
1.143345789189783,0.1687733233546754,-1.7222407106077784,0.10357765016380088,4.754131367310592,0.8200339049544738,0.0,1.143345789189783,0.1687733233546754,-1.7222407106077784,0.10357765016380088,4.754131367310592,0.8200339049544738,0.0
1.1422516294559237,0.16438676414417863,-1.7187917838380713,0.10284375786878071,4.754651748987594,0.8228623817692197,1.0,1.1422516294559237,0.16438676414417863,-1.7187917838380713,0.10284375786878071,4.754651748987594,0.8228623817692197,1.0
1.1412996825242752,0.16009383169075495,-1.7154042429314904,0.10207841530576237,4.755046962093361,0.8256203513941058,0.0,1.1412996825242752,0.16009383169075495,-1.7154042429314904,0.10207841530576237,4.755046962093361,0.8256203513941058,0.0
1.1405006010391967,0.1562012722177111,-1.7123320202979753,0.10137185370142912,4.755375063539659,0.8281460267929096,1.0,1.1405006010391967,0.1562012722177111,-1.7123320202979753,0.10137185370142912,4.755375063539659,0.8281460267929096,1.0
1.1397414669704697,0.15270727144655438,-1.709621321782438,0.10083726572448776,4.755914619976508,0.8305820868210325,0.0,1.1397414669704697,0.15270727144655438,-1.709621321782438,0.10083726572448776,4.755914619976508,0.8305820868210325,0.0
1.1390065676676622,0.14952973743668313,-1.7072030383545915,0.10044816956684878,4.756667761932784,0.8329670141562256,1.0,1.1390065676676622,0.14952973743668313,-1.7072030383545915,0.10044816956684878,4.756667761932784,0.8329670141562256,1.0
1.1383017620851728,0.14674099165644985,-1.7051565322149203,0.10024965587471857,4.757802268557157,0.8353414885841403,0.0,1.1383017620851728,0.14674099165644985,-1.7051565322149203,0.10024965587471857,4.757802268557157,0.8353414885841403,0.0
1.1376728565937506,0.14436117426159825,-1.7034539733300325,0.10017385565219221,4.75903904056739,0.8375455207022898,1.0,1.1376728565937506,0.14436117426159825,-1.7034539733300325,0.10017385565219221,4.75903904056739,0.8375455207022898,1.0
1.1371937539136454,0.14233880301930568,-1.7019868378855079,0.10013941765034612,4.759928003739258,0.8394305727008752,0.0,1.1371937539136454,0.14233880301930568,-1.7019868378855079,0.10013941765034612,4.759928003739258,0.8394305727008752,0.0
1.1368544671907692,0.14067241319097268,-1.7007348858570617,0.10009912901648027,4.760461701221709,0.8409755390282574,1.0,1.1368544671907692,0.14067241319097268,-1.7007348858570617,0.10009912901648027,4.760461701221709,0.8409755390282574,1.0
1.136661787485902,0.13941783961332838,-1.6996489819225817,0.09990237134619383,4.760555444492081,0.8421157048699475,0.0,1.136661787485902,0.13941783961332838,-1.6996489819225817,0.09990237134619383,4.760555444492081,0.8421157048699475,0.0
1.1365724384313298,0.13847524703500844,-1.6987135465896914,0.0996394923794678,4.760356772674761,0.8429431490206352,1.0,1.1365724384313298,0.13847524703500844,-1.6987135465896914,0.0996394923794678,4.760356772674761,0.8429431490206352,1.0
1.136576433172965,0.1379049643770816,-1.6980994216423193,0.09959074820914095,4.760002039617563,0.8433745145382008,0.0,1.136576433172965,0.1379049643770816,-1.6980994216423193,0.09959074820914095,4.760002039617563,0.8433745145382008,0.0
1.1366375527199823,0.1376316408254554,-1.6977622654483153,0.09977859261215401,4.759563150669917,0.8435455560592111,1.0,1.1366375527199823,0.1376316408254554,-1.6977622654483153,0.09977859261215401,4.759563150669917,0.8435455560592111,1.0
1.1367150507077035,0.13777600080129454,-1.6978513481867783,0.10047730621364992,4.759109880652386,0.843598353227822,0.0,1.1367150507077035,0.13777600080129454,-1.6978513481867783,0.10047730621364992,4.759109880652386,0.843598353227822,0.0
1.1368050655525483,0.1381982699592618,-1.6982147365175198,0.10148870821663476,4.758630511656171,0.8435755166214746,1.0,1.1368050655525483,0.1381982699592618,-1.6982147365175198,0.10148870821663476,4.758630511656171,0.8435755166214746,1.0
1.1369008061937367,0.13861596180910551,-1.6985353811127653,0.10218142138329958,4.758166588994279,0.8434775788723868,0.0,1.1369008061937367,0.13861596180910551,-1.6985353811127653,0.10218142138329958,4.758166588994279,0.8434775788723868,0.0
1.1370143900142287,0.1390589786564402,-1.698844707273378,0.10270586438096344,4.757660588387164,0.8433358987023946,1.0,1.1370143900142287,0.1390589786564402,-1.698844707273378,0.10270586438096344,4.757660588387164,0.8433358987023946,1.0
1.1371270417283388,0.1394209188933388,-1.6990893186195017,0.10301417521141056,4.757248863682639,0.8432660573028073,0.0,1.1371270417283388,0.1394209188933388,-1.6990893186195017,0.10301417521141056,4.757248863682639,0.8432660573028073,0.0
1.137250745560973,0.13977284730901435,-1.6993259404823553,0.1032410848586637,4.756858976899051,0.8432233801463388,1.0,1.137250745560973,0.13977284730901435,-1.6993259404823553,0.1032410848586637,4.756858976899051,0.8432233801463388,1.0
1.1373889636215482,0.14017436877761424,-1.6996119639834297,0.1035274662220097,4.756468024851027,0.8430974792058054,0.0,1.1373889636215482,0.14017436877761424,-1.6996119639834297,0.1035274662220097,4.756468024851027,0.8430974792058054,0.0
1.1375110695575283,0.1405742257705328,-1.6999061101258293,0.10381431363854646,4.7561037044139045,0.8429520040312598,1.0,1.1375110695575283,0.1405742257705328,-1.6999061101258293,0.10381431363854646,4.7561037044139045,0.8429520040312598,1.0
1.1375520822383156,0.14092288349149462,-1.7001653688579483,0.10396607220878894,4.755764417691028,0.8429494740282241,0.0,1.1375520822383156,0.14092288349149462,-1.7001653688579483,0.10396607220878894,4.755764417691028,0.8429494740282241,0.0
1.137554079609133,0.14121310147128602,-1.7003752259518465,0.10402536915493524,4.755437381509166,0.8430173846360212,1.0,1.137554079609133,0.14121310147128602,-1.7003752259518465,0.10402536915493524,4.755437381509166,0.8430173846360212,1.0
1.1376191938977855,0.14144381444547094,-1.70050039452308,0.10406569940069312,4.755008612573663,0.8429868914415397,0.0,1.1376191938977855,0.14144381444547094,-1.70050039452308,0.10406569940069312,4.755008612573663,0.8429868914415397,0.0
1.1377351745632585,0.14161240918722975,-1.7005468666841022,0.10407365559444973,4.754537765692938,0.8429054652912105,1.0,1.1377351745632585,0.14161240918722975,-1.7005468666841022,0.10407365559444973,4.754537765692938,0.8429054652912105,1.0
1.137884311584303,0.14168131848043558,-1.7004864129273574,0.103942836128278,4.754157466289274,0.8429488082379516,0.0,1.137884311584303,0.14168131848043558,-1.7004864129273574,0.103942836128278,4.754157466289274,0.8429488082379516,0.0
1.1380358454503285,0.14168153486227414,-1.7003741606874105,0.10373850509364166,4.753898607031318,0.8430950823608242,1.0,1.1380358454503285,0.14168153486227414,-1.7003741606874105,0.10373850509364166,4.753898607031318,0.8430950823608242,1.0
1.1380678033834093,0.14164769607167332,-1.7003593801433605,0.1036701533997891,4.753989154508381,0.8432802386356121,0.0,1.1380678033834093,0.14164769607167332,-1.7003593801433605,0.1036701533997891,4.753989154508381,0.8432802386356121,0.0
1.1379972296145222,0.14158404652162043,-1.7004079828332543,0.10366183934376101,4.754365725486519,0.8435221868206456,0.9818181818181818,1.1379972296145222,0.14158404652162043,-1.7004079828332543,0.10366183934376101,4.754365725486519,0.8435221868206456,0.9818181818181818
1.1377459603656734,0.1414614578876927,-1.70046284395171,0.10352461164621628,4.755136444305988,0.8438901025252401,-0.04818181818181818,1.1377459603656734,0.1414614578876927,-1.70046284395171,0.10352461164621628,4.755136444305988,0.8438901025252401,-0.04818181818181818
1.137395488366219,0.14131443475076352,-1.700527558766199,0.10331616935664714,4.756132999185895,0.8442983651203493,0.9390909090909091,1.137395488366219,0.14131443475076352,-1.700527558766199,0.10331616935664714,4.756132999185895,0.8442983651203493,0.9390909090909091
1.1371973491811171,0.14126871160379822,-1.700633552577584,0.10326040942132358,4.756809442102775,0.8444004973481539,-0.10181818181818182,1.1371973491811171,0.14126871160379822,-1.700633552577584,0.10326040942132358,4.756809442102775,0.8444004973481539,-0.10181818181818182
1.1371135927648341,0.1412877365608355,-1.7007531285105288,0.1032704045977898,4.757249928947075,0.8442978990671585,0.8909090909090909,1.1371135927648341,0.1412877365608355,-1.7007531285105288,0.1032704045977898,4.757249928947075,0.8442978990671585,0.8909090909090909
1.137135031211609,0.1413227238396564,-1.7008063917323304,0.10313251943235095,4.757460318673191,0.84409483303404,-0.12636363636363637,1.137135031211609,0.1413227238396564,-1.7008063917323304,0.10313251943235095,4.757460318673191,0.84409483303404,-0.12636363636363637
1.137226643953108,0.1413653510618545,-1.7008239685955249,0.10294484979928444,4.7575055924117216,0.8438202611256529,0.8909090909090909,1.137226643953108,0.1413653510618545,-1.7008239685955249,0.10294484979928444,4.7575055924117216,0.8438202611256529,0.8909090909090909
1.1374112010166504,0.1414311144960226,-1.7008882839358503,0.1029723635822963,4.757369771196128,0.8433371637039124,-0.12636363636363637,1.1374112010166504,0.1414311144960226,-1.7008882839358503,0.1029723635822963,4.757369771196128,0.8433371637039124,-0.12636363636363637
1.137630911806582,0.1415245748055276,-1.70099973722747,0.103180489621486,4.757124760375841,0.8427978735831714,0.8845454545454545,1.137630911806582,0.1415245748055276,-1.70099973722747,0.103180489621486,4.757124760375841,0.8427978735831714,0.8845454545454545
1.1378186646634325,0.1417105799629128,-1.7012046674733519,0.10355200891593047,4.756839269506984,0.8424390792053105,-0.1318181818181818,1.1378186646634325,0.1417105799629128,-1.7012046674733519,0.10355200891593047,4.756839269506984,0.8424390792053105,-0.1318181818181818
1.1379727285324936,0.14194656932500746,-1.7014601977799448,0.1039924125364455,4.756557507063653,0.8422549881949588,0.8845454545454545,1.1379727285324936,0.14194656932500746,-1.7014601977799448,0.1039924125364455,4.756557507063653,0.8422549881949588,0.8845454545454545
1.1380731297055897,0.14214848686990592,-1.7016870991048194,0.10431508779202224,4.756391858443851,0.8423483985701932,-0.12,1.1380731297055897,0.14214848686990592,-1.7016870991048194,0.10431508779202224,4.756391858443851,0.8423483985701932,-0.12
1.138136646097588,0.14230250080469656,-1.701872455116689,0.10451345168134109,4.756317822565547,0.8426119183600566,0.8727272727272727,1.138136646097588,0.14230250080469656,-1.701872455116689,0.10451345168134109,4.756317822565547,0.8426119183600566,0.8727272727272727
1.1381896430032805,0.14237127693984786,-1.7019962921073777,0.10451665579702761,4.756327942577689,0.8429758393230159,-0.11454545454545455,1.1381896430032805,0.14237127693984786,-1.7019962921073777,0.10451665579702761,4.756327942577689,0.8429758393230159,-0.11454545454545455
1.138241840960646,0.14238094754355618,-1.702092032748566,0.10444242018164164,4.756402511088211,0.8434389630365806,0.9090909090909091,1.138241840960646,0.14238094754355618,-1.702092032748566,0.10444242018164164,4.756402511088211,0.8434389630365806,0.9090909090909091
1.1383082868298435,0.14238565800973427,-1.7022411697696107,0.1046392361085769,4.7565191575439565,0.8440331808548046,-0.11454545454545455,1.1383082868298435,0.14238565800973427,-1.7022411697696107,0.1046392361085769,4.7565191575439565,0.8440331808548046,-0.11454545454545455
1.1383789937567852,0.14242051213050066,-1.7024955016537129,0.10511603348986356,4.756667761932784,0.8447311953765143,0.9636363636363636,1.1383789937567852,0.14242051213050066,-1.7024955016537129,0.10511603348986356,4.756667761932784,0.8447311953765143,0.9636363636363636
1.138376064279586,0.14259638063098679,-1.702979264865726,0.10593591259857968,4.756780147330785,0.8451174868926303,-0.05454545454545454,1.138376064279586,0.14259638063098679,-1.702979264865726,0.10593591259857968,4.756780147330785,0.8451174868926303,-0.05454545454545454
1.1383165426292228,0.14287206773808042,-1.7036265461686697,0.10700471404543413,4.756852052680217,0.8452499791568617,1.0118181818181817,1.1383165426292228,0.14287206773808042,-1.7036265461686697,0.10700471404543413,4.756852052680217,0.8452499791568617,1.0118181818181817
1.138197099854333,0.14320799222008032,-1.704367171267821,0.10826740194202475,4.75682435580488,0.8450315333684482,-0.011818181818181818,1.138197099854333,0.14320799222008032,-1.704367171267821,0.10826740194202475,4.75682435580488,0.8450315333684482,-0.011818181818181818
1.1380580828454305,0.14358970642807273,-1.7051422843030883,0.10960281078113138,4.756712503039096,0.8445916457353942,1.0118181818181817,1.1380580828454305,0.14358970642807273,-1.7051422843030883,0.10960281078113138,4.756712503039096,0.8445916457353942,1.0118181818181817
1.1379616764139697,0.14415006881093903,-1.7060462943351158,0.11111017660287303,4.756440327975691,0.8439494244385216,-0.011818181818181818,1.1379616764139697,0.14415006881093903,-1.7060462943351158,0.11111017660287303,4.756440327975691,0.8439494244385216,-0.011818181818181818
1.1379081468760592,0.14483999398083766,-1.7070219434004663,0.11269916831202562,4.756048843295449,0.8431091305355743,1.0118181818181817,1.1379081468760592,0.14483999398083766,-1.7070219434004663,0.11269916831202562,4.756048843295449,0.8431091305355743,1.0118181818181817
1.137903619502206,0.1456729309012736,-1.7080643046511232,0.11436073116088288,4.755542310056115,0.8417449262671812,-0.011818181818181818,1.137903619502206,0.1456729309012736,-1.7080643046511232,0.11436073116088288,4.755542310056115,0.8417449262671812,-0.011818181818181818
1.1379422353380122,0.14666655630398215,-1.7092382260596304,0.11624714802952686,4.754903151394497,0.8399452951605603,1.0118181818181817,1.1379422353380122,0.14666655630398215,-1.7092382260596304,0.11624714802952686,4.754903151394497,0.8399452951605603,1.0118181818181817
1.1380586154776486,0.1480915472242563,-1.7109425159992264,0.11917910529737917,4.753893280709138,0.8375614996688303,-0.011818181818181818,1.1380586154776486,0.1480915472242563,-1.7109425159992264,0.11917910529737917,4.753893280709138,0.8375614996688303,-0.011818181818181818
1.1381899093193897,0.1498432247864991,-1.7130544027436594,0.12283265438496685,4.752723620358376,0.8348171121655036,1.0118181818181817,1.1381899093193897,0.1498432247864991,-1.7130544027436594,0.12283265438496685,4.752723620358376,0.8348171121655036,1.0118181818181817
1.138119735024666,0.15138090071039723,-1.7149183491906057,0.1257177816295258,4.752242653465507,0.8327839884103099,-0.011818181818181818,1.138119735024666,0.15138090071039723,-1.7149183491906057,0.1257177816295258,4.752242653465507,0.8327839884103099,-0.011818181818181818
1.1379124079338032,0.15286120215756097,-1.7167344918959853,0.12824614515655497,4.752213358693516,0.8311429485466031,1.0118181818181817,1.1379124079338032,0.15286120215756097,-1.7167344918959853,0.12824614515655497,4.752213358693516,0.8311429485466031,1.0118181818181817
1.1377314461377324,0.1537277448420023,-1.7178823143258093,0.12960892629824056,4.752503110620117,0.8305290899153399,-0.011818181818181818,1.1377314461377324,0.1537277448420023,-1.7178823143258093,0.12960892629824056,4.752503110620117,0.8305290899153399,-0.011818181818181818
1.137613734417551,0.15422617208476744,-1.718642380500918,0.13032887860942985,4.752884475288217,0.8304666387877775,1.0118181818181817,1.137613734417551,0.15422617208476744,-1.718642380500918,0.13032887860942985,4.752884475288217,0.8304666387877775,1.0118181818181817
1.1377016187335236,0.15456474308310056,-1.7192571712385627,0.1309729641190655,4.752897791093667,0.8303214965083682,-0.011818181818181818,1.1377016187335236,0.15456474308310056,-1.7192571712385627,0.1309729641190655,4.752897791093667,0.8303214965083682,-0.011818181818181818
1.1379322484839243,0.15483625235623416,-1.719827354027949,0.13165956033760157,4.752629344455787,0.8300593748780771,1.0118181818181817,1.1379322484839243,0.15483625235623416,-1.719827354027949,0.13165956033760157,4.752629344455787,0.8300593748780771,1.0118181818181817
1.138202426176513,0.15504962149381993,-1.7202970024861843,0.132381726401447,4.752144116505175,0.8296948547038726,-0.011818181818181818,1.138202426176513,0.15504962149381993,-1.7202970024861843,0.132381726401447,4.752144116505175,0.8296948547038726,-0.011818181818181818
1.1385012328508197,0.15522868578761415,-1.720701936129931,0.13313631645156415,4.751497500992503,0.8292514383823744,1.0118181818181817,1.1385012328508197,0.15522868578761415,-1.720701936129931,0.13313631645156415,4.751497500992503,0.8292514383823744,1.0118181818181817
1.1387841937166407,0.15535090823689196,-1.7209834322571522,0.13373880671392413,4.750830645455547,0.8288315910365234,-0.011818181818181818,1.1387841937166407,0.15535090823689196,-1.7209834322571522,0.13373880671392413,4.750830645455547,0.8288315910365234,-0.011818181818181818
1.1390935198772534,0.15545601987616603,-1.7212140620075531,0.13430114982285118,4.750064187693822,0.8283789202302371,1.0118181818181817,1.1390935198772534,0.15545601987616603,-1.7212140620075531,0.13430114982285118,4.750064187693822,0.8283789202302371,1.0118181818181817
1.139384603384399,0.15555648762828928,-1.7213578727064174,0.13472078910924198,4.749304121518714,0.8279682607901468,-0.011818181818181818,1.139384603384399,0.15555648762828928,-1.7213578727064174,0.13472078910924198,4.749304121518714,0.8279682607901468,-0.011818181818181818
1.1396633031924759,0.1556510132022303,-1.7214486864995888,0.13504174995486698,4.748553110091311,0.8275944861311543,1.0118181818181817,1.1396633031924759,0.1556510132022303,-1.7214486864995888,0.13504174995486698,4.748553110091311,0.8275944861311543,1.0118181818181817
1.1399012566358744,0.155708537481776,-1.7214946260283928,0.1352209390843373,4.747908092475295,0.8273277705479828,-0.011818181818181818,1.1399012566358744,0.155708537481776,-1.7214946260283928,0.1352209390843373,4.747908092475295,0.8273277705479828,-0.011818181818181818
1.140115907419735,0.1557509649668923,-1.721513667630187,0.13529839546016656,4.747329121254311,0.8271315621546713,1.0118181818181817,1.140115907419735,0.1557509649668923,-1.721513667630187,0.13529839546016656,4.747329121254311,0.8271315621546713,1.0118181818181817
